<?xml version="1.0" encoding="UTF-8"?>
<map version="1.10" tiledversion="1.11.2" orientation="orthogonal" renderorder="right-down" width="100" height="100" tilewidth="32" tileheight="32" infinite="0" nextlayerid="5" nextobjectid="52">
 <editorsettings>
  <export target="data/maps/house.json" format="json"/>
 </editorsettings>
 <tileset firstgid="1" name="kennie" tilewidth="32" tileheight="32" tilecount="816" columns="34">
  <image source="client/sprites/tiles/kenney_map.png" width="1088" height="768"/>
 </tileset>
 <layer id="1" name="Camada de Blocos 1" width="100" height="100">
  <data encoding="csv">
0,0,0,0,0,0,0,0,0,0,0,0,0,0,0,0,0,0,0,0,0,0,0,0,0,0,0,0,0,0,0,0,0,0,0,0,0,0,0,0,0,0,0,0,0,0,0,0,0,0,0,0,0,0,0,0,0,0,0,0,0,0,0,0,0,0,0,0,0,0,0,0,0,0,0,0,0,0,0,0,0,0,0,0,0,0,0,0,0,0,0,0,0,0,0,0,0,0,0,0,
0,0,0,0,0,0,0,0,0,0,0,0,0,0,0,0,0,0,0,0,0,0,0,0,0,0,0,0,0,0,0,0,0,0,0,0,0,0,0,0,0,0,0,0,0,0,0,0,0,0,0,0,0,0,0,0,0,0,0,0,0,0,0,0,0,0,0,0,0,0,0,0,0,0,0,0,0,0,0,0,0,0,0,0,0,0,0,0,0,0,0,0,0,0,0,0,0,0,0,0,
0,0,0,0,0,0,0,0,0,0,0,0,0,0,0,0,0,0,0,0,0,0,0,0,0,0,0,0,0,0,0,0,0,0,0,0,0,0,0,0,0,0,0,0,0,0,0,0,0,0,0,0,0,0,0,0,0,0,0,0,0,0,0,0,0,0,0,0,0,0,0,0,0,0,0,0,0,0,0,0,0,0,0,0,0,0,0,0,0,0,0,0,0,0,0,0,0,0,0,0,
0,0,0,0,0,0,0,0,0,0,0,0,0,0,0,0,0,0,0,0,0,0,0,0,0,0,0,0,0,0,0,0,0,0,0,0,0,0,0,0,0,0,0,0,0,0,0,0,0,0,0,0,0,0,0,0,0,0,0,0,0,0,0,0,0,0,0,0,0,0,0,0,0,0,0,0,0,0,0,0,0,0,0,0,0,0,0,0,0,0,0,0,0,0,0,0,0,0,0,0,
0,0,0,0,0,0,0,0,0,0,0,0,0,0,0,0,0,0,0,0,0,0,0,0,0,0,0,0,0,0,0,0,0,0,0,0,0,0,0,0,0,0,0,0,0,0,0,0,0,0,0,0,0,0,0,0,0,0,0,0,0,0,0,0,0,0,0,0,0,0,0,0,0,0,0,0,0,0,0,0,0,0,0,0,0,0,0,0,0,0,0,0,0,0,0,0,0,0,0,0,
0,0,0,0,0,0,0,0,0,0,0,0,0,0,0,0,0,0,0,0,0,0,0,0,0,0,0,0,0,0,0,0,0,0,0,0,0,0,0,0,0,0,0,0,0,0,0,0,0,0,0,0,0,0,0,0,0,0,0,0,0,0,0,0,0,0,0,0,0,0,0,0,0,0,0,0,0,0,0,0,0,0,0,0,0,0,0,0,0,0,0,0,0,0,0,0,0,0,0,0,
0,0,0,0,0,0,0,0,0,0,0,0,0,0,0,0,0,0,0,0,0,0,0,0,0,0,0,0,0,0,0,0,0,0,0,0,0,0,0,0,0,0,0,0,0,0,0,0,0,0,0,0,0,0,0,0,0,0,0,0,0,0,0,0,0,0,0,0,0,0,0,0,0,0,0,0,0,0,0,0,0,0,0,0,0,0,0,0,0,0,0,0,0,0,0,0,0,0,0,0,
0,0,0,0,0,0,0,0,0,0,0,0,0,0,0,0,0,0,0,0,0,0,0,0,0,0,0,0,0,0,0,0,0,0,0,0,0,0,0,0,0,0,0,0,0,0,0,0,0,0,0,0,0,0,0,0,0,0,0,0,0,0,0,0,0,0,0,0,0,0,0,0,0,0,0,0,0,0,0,0,0,0,0,0,0,0,0,0,0,0,0,0,0,0,0,0,0,0,0,0,
0,0,0,0,0,0,0,0,0,0,0,0,0,0,0,0,0,0,0,0,0,0,0,0,0,0,0,0,0,0,0,0,0,0,0,0,0,0,0,0,0,0,0,0,0,0,0,0,0,0,0,0,0,0,0,0,0,0,0,0,0,0,0,0,0,0,0,0,0,0,0,0,0,0,0,0,0,0,0,0,0,0,0,0,0,0,0,0,0,0,0,0,0,0,0,0,0,0,0,0,
0,0,0,0,0,0,0,0,0,0,0,0,0,0,0,0,0,0,0,0,0,0,0,0,0,0,0,0,0,0,0,0,0,0,0,0,0,0,0,0,0,0,0,0,0,0,0,0,0,0,0,0,0,0,0,0,0,0,0,0,0,0,0,0,0,0,0,0,0,0,0,0,0,0,0,0,0,0,0,0,0,0,0,0,0,0,0,0,0,0,0,0,0,0,0,0,0,0,0,0,
0,0,0,0,0,0,0,0,0,0,0,0,0,0,0,0,0,0,0,0,0,0,0,0,0,0,0,0,0,0,0,0,0,0,0,0,0,0,0,0,0,0,0,0,0,0,0,0,0,0,0,0,0,0,0,0,0,0,0,0,0,0,0,0,0,0,0,0,0,0,0,0,0,0,0,0,0,0,0,0,0,0,0,0,0,0,0,0,0,0,0,0,0,0,0,0,0,0,0,0,
0,0,0,0,0,0,0,0,0,0,0,0,0,0,0,0,0,0,0,0,0,0,0,0,0,0,0,0,0,0,0,0,0,0,0,0,0,0,0,0,0,0,0,0,0,0,0,0,0,0,0,0,0,0,0,0,0,0,0,0,0,0,0,0,0,0,0,0,0,0,0,0,0,0,0,0,0,0,0,0,0,0,0,0,0,0,0,0,0,0,0,0,0,0,0,0,0,0,0,0,
0,0,0,0,0,0,0,0,0,0,0,0,0,0,0,0,0,0,0,0,0,0,0,0,0,0,0,0,0,0,0,0,0,0,0,0,0,0,0,0,0,0,0,0,0,0,0,0,0,0,0,0,0,0,0,0,0,0,0,0,0,0,0,0,0,0,0,0,0,0,0,0,0,0,0,0,0,0,0,0,0,0,0,0,0,0,0,0,0,0,0,0,0,0,0,0,0,0,0,0,
0,0,0,0,0,0,0,0,0,0,0,0,0,0,0,0,0,0,0,0,0,0,0,0,0,0,0,0,0,0,0,0,0,0,0,0,0,0,0,0,0,0,0,0,0,0,0,0,0,0,0,0,0,0,0,0,0,0,0,0,0,0,0,0,0,0,0,0,0,0,0,0,0,0,0,0,0,0,0,0,0,0,0,0,0,0,0,0,0,0,0,0,0,0,0,0,0,0,0,0,
0,0,0,0,0,0,0,0,0,0,0,0,0,0,0,0,0,0,0,0,0,0,0,0,0,0,0,0,0,0,0,0,0,0,0,0,0,0,0,0,0,0,0,0,0,0,0,0,0,0,0,0,0,0,0,0,0,0,0,0,0,0,0,0,0,0,0,0,0,0,0,0,0,0,0,0,0,0,0,0,0,0,0,0,0,0,0,0,0,0,0,0,0,0,0,0,0,0,0,0,
0,0,0,0,0,0,0,0,0,0,0,0,0,0,0,0,0,0,0,0,0,0,0,0,0,0,0,0,0,0,0,0,0,0,0,0,0,0,0,0,0,0,0,0,0,0,0,0,0,0,0,0,0,0,0,0,0,0,0,0,0,0,0,0,0,0,0,0,0,0,0,0,0,0,0,0,0,0,0,0,0,0,0,0,0,0,0,0,0,0,0,0,0,0,0,0,0,0,0,0,
0,0,0,0,0,0,0,0,0,0,0,0,0,0,0,0,0,0,0,0,0,0,0,0,0,0,0,0,0,0,0,0,0,0,0,0,0,0,0,0,0,0,0,0,0,0,0,0,0,0,0,0,0,0,0,0,0,0,0,0,0,0,0,0,0,0,0,0,0,0,0,0,0,0,0,0,0,0,0,0,0,0,0,0,0,0,0,0,0,0,0,0,0,0,0,0,0,0,0,0,
0,0,0,0,0,0,0,0,0,0,0,0,0,0,0,0,0,0,0,0,0,0,0,0,0,0,0,0,0,0,0,0,0,0,0,0,0,0,0,0,0,0,0,0,0,0,0,0,0,0,0,0,0,0,0,0,0,0,0,0,0,0,0,0,0,0,0,0,0,0,0,0,0,0,0,0,0,0,0,0,0,0,0,0,0,0,0,0,0,0,0,0,0,0,0,0,0,0,0,0,
0,0,0,0,0,0,0,0,0,0,0,0,0,0,0,0,0,0,0,0,0,0,0,0,0,0,0,0,0,0,0,0,0,0,0,0,0,0,0,0,0,0,0,0,0,0,0,0,0,0,0,0,0,0,0,0,0,0,0,0,0,0,0,0,0,0,0,0,0,0,0,0,0,0,0,0,0,0,0,0,0,0,0,0,0,0,0,0,0,0,0,0,0,0,0,0,0,0,0,0,
0,0,0,0,0,0,0,0,0,0,0,0,0,0,0,0,0,0,0,0,0,0,0,0,0,0,0,0,0,0,0,0,0,0,0,0,0,0,0,0,0,0,0,0,0,0,0,0,0,0,0,0,0,0,0,0,0,0,0,0,0,0,0,0,0,0,0,0,0,0,0,0,0,0,0,0,0,0,0,0,0,0,0,0,0,0,0,0,0,0,0,0,0,0,0,0,0,0,0,0,
0,0,0,0,0,0,0,0,0,0,0,0,0,0,0,0,0,0,0,0,0,0,0,0,0,0,0,0,0,0,0,0,0,0,0,0,0,0,0,0,0,0,0,0,0,0,0,0,0,0,0,0,0,0,0,0,0,0,0,0,0,0,0,0,0,0,0,0,0,0,0,0,0,0,0,0,0,0,0,0,0,0,0,0,0,0,0,0,0,0,0,0,0,0,0,0,0,0,0,0,
0,0,0,0,0,0,0,0,0,0,0,0,0,0,0,0,0,0,0,0,0,0,0,0,0,0,0,0,0,0,0,0,0,0,0,0,0,0,0,0,0,0,0,0,0,0,0,0,0,0,0,0,0,0,0,0,0,0,0,0,0,0,0,0,0,0,0,0,0,0,0,0,0,0,0,0,0,0,0,0,0,0,0,0,0,0,0,0,0,0,0,0,0,0,0,0,0,0,0,0,
0,0,0,0,0,0,0,0,0,0,0,0,0,0,0,0,0,0,0,0,0,0,0,0,0,0,0,0,0,0,0,0,0,0,0,0,0,0,0,0,0,0,0,0,0,0,0,0,0,0,0,0,0,0,0,0,0,0,0,0,0,0,0,0,0,0,0,0,0,0,0,0,0,0,0,0,0,0,0,0,0,0,0,0,0,0,0,0,0,0,0,0,0,0,0,0,0,0,0,0,
0,0,0,0,0,0,0,0,0,0,0,0,0,0,0,0,0,0,0,0,0,0,0,0,0,0,0,0,0,0,0,0,0,0,0,0,0,0,0,0,0,0,0,0,0,0,0,0,0,0,0,0,0,0,0,0,0,0,0,0,0,0,0,0,0,0,0,0,0,0,0,0,0,0,0,0,0,0,0,0,0,0,0,0,0,0,0,0,0,0,0,0,0,0,0,0,0,0,0,0,
0,0,0,0,0,0,0,0,0,0,0,0,0,0,0,0,0,0,0,0,0,0,0,0,0,0,0,0,0,0,0,0,0,0,0,0,0,0,0,0,0,0,0,0,0,0,0,0,0,0,0,0,0,0,0,0,0,0,0,0,0,0,0,0,0,0,0,0,0,0,0,0,0,0,0,0,0,0,0,0,0,0,0,0,0,0,0,0,0,0,0,0,0,0,0,0,0,0,0,0,
0,0,0,0,0,0,0,0,0,0,0,0,0,0,0,0,0,0,0,0,0,0,0,0,0,0,0,0,0,0,0,0,0,0,0,0,0,0,0,0,0,0,0,0,0,0,0,0,0,0,0,0,0,0,0,0,0,0,0,0,0,0,0,0,0,0,0,0,0,0,0,0,0,0,0,0,0,0,0,0,0,0,0,0,0,0,0,0,0,0,0,0,0,0,0,0,0,0,0,0,
0,0,0,0,0,0,0,0,0,0,0,0,0,0,0,0,0,0,0,0,0,0,0,0,0,0,0,0,0,0,0,0,0,0,0,0,0,0,0,0,0,0,0,0,0,0,0,0,0,0,0,0,0,0,0,0,0,0,0,0,0,0,0,0,0,0,0,0,0,0,0,0,0,0,0,0,0,0,0,0,0,0,0,0,0,0,0,0,0,0,0,0,0,0,0,0,0,0,0,0,
0,0,0,0,0,0,0,0,0,0,0,0,0,0,0,0,0,0,0,0,0,0,0,0,0,0,0,0,0,0,0,0,0,0,0,0,0,0,0,0,0,0,0,0,0,0,0,0,0,0,0,0,0,0,0,0,0,0,0,0,0,0,0,0,0,0,0,0,0,0,0,0,0,0,0,0,0,0,0,0,0,0,0,0,0,0,0,0,0,0,0,0,0,0,0,0,0,0,0,0,
0,0,0,0,0,0,0,0,0,0,0,0,0,0,0,0,0,0,0,0,0,0,0,0,0,0,0,0,0,0,0,0,0,0,0,0,0,0,0,0,0,0,0,0,0,0,0,0,0,0,0,0,0,0,0,0,0,0,0,0,0,0,0,0,0,0,0,0,0,0,0,0,0,0,0,0,0,0,0,0,0,0,0,0,0,0,0,0,0,0,0,0,0,0,0,0,0,0,0,0,
0,0,0,0,0,0,0,0,0,0,0,0,0,0,0,0,0,0,0,0,0,0,0,0,0,0,0,0,0,0,0,0,0,0,0,0,0,0,0,0,0,0,0,0,0,0,0,0,0,0,0,0,0,0,0,0,0,0,0,0,0,0,0,0,0,0,0,0,0,0,0,0,0,0,0,0,0,0,0,0,0,0,0,0,0,0,0,0,0,0,0,0,0,0,0,0,0,0,0,0,
0,0,0,0,0,0,0,0,0,0,0,0,0,0,0,0,0,0,0,0,0,0,0,0,0,0,0,0,0,0,0,0,0,0,0,0,0,0,0,0,0,0,0,0,0,0,0,0,0,0,0,0,0,0,0,0,0,0,0,0,0,0,0,0,0,0,0,0,0,0,0,0,0,0,0,0,0,0,0,0,0,0,0,0,0,0,0,0,0,0,0,0,0,0,0,0,0,0,0,0,
0,0,0,0,0,0,0,0,0,0,0,0,0,0,0,0,0,0,0,0,0,0,0,0,0,0,0,0,0,0,0,0,0,0,0,0,0,0,0,0,0,0,0,0,0,0,0,0,0,0,0,0,0,0,0,0,0,0,0,0,0,0,0,0,0,0,0,0,0,0,0,0,0,0,0,0,0,0,0,0,0,0,0,0,0,0,0,0,0,0,0,0,0,0,0,0,0,0,0,0,
0,0,0,0,0,0,0,0,0,0,0,0,0,0,0,0,0,0,0,0,0,0,0,0,0,0,0,0,0,0,0,0,0,0,0,0,0,0,0,0,0,0,0,0,0,0,0,0,0,0,0,0,0,0,0,0,0,0,0,0,0,0,0,0,0,0,0,0,0,0,0,0,0,0,0,0,0,0,0,0,0,0,0,0,0,0,0,0,0,0,0,0,0,0,0,0,0,0,0,0,
0,0,0,0,0,0,0,0,0,0,0,0,0,0,0,0,0,0,0,0,0,0,0,0,0,0,0,0,0,0,0,0,0,0,0,0,0,0,0,0,0,0,0,0,0,0,0,0,0,0,0,0,0,0,0,0,0,0,0,0,0,0,0,0,0,0,0,0,0,0,0,0,0,0,0,0,0,0,0,0,0,0,0,0,0,0,0,0,0,0,0,0,0,0,0,0,0,0,0,0,
0,0,0,0,0,0,0,0,0,0,0,0,0,0,0,0,0,0,0,0,0,0,0,0,0,0,0,0,0,0,0,0,0,0,0,0,0,0,0,0,0,0,0,0,0,0,0,0,0,0,0,0,0,0,0,0,0,0,0,0,0,0,0,0,0,0,0,0,0,0,0,0,0,0,0,0,0,0,0,0,0,0,0,0,0,0,0,0,0,0,0,0,0,0,0,0,0,0,0,0,
0,0,0,0,0,0,0,0,0,0,0,0,0,0,0,0,0,0,0,0,0,0,0,0,0,0,0,0,0,0,0,0,0,0,0,0,0,0,0,0,0,0,0,0,0,0,0,0,0,0,0,0,0,0,0,0,0,0,0,0,0,0,0,0,0,0,0,0,0,0,0,0,0,0,0,0,0,0,0,0,0,0,0,0,0,0,0,0,0,0,0,0,0,0,0,0,0,0,0,0,
0,0,0,0,0,0,0,0,0,0,0,0,0,0,0,0,0,0,0,0,0,0,0,0,0,0,0,0,0,0,0,0,0,0,0,0,0,0,0,0,0,0,0,0,0,0,0,0,0,0,0,0,0,0,0,0,0,0,0,0,0,0,0,0,0,0,0,0,0,0,0,0,0,0,0,0,0,0,0,0,0,0,0,0,0,0,0,0,0,0,0,0,0,0,0,0,0,0,0,0,
0,0,0,0,0,0,0,0,0,0,0,0,0,0,0,0,0,0,0,0,0,0,0,0,0,0,0,0,0,0,0,0,0,0,0,0,0,0,0,0,0,0,0,0,0,0,0,0,0,0,0,0,0,0,0,0,0,0,0,0,0,0,0,0,0,0,0,0,0,0,0,0,0,0,0,0,0,0,0,0,0,0,0,0,0,0,0,0,0,0,0,0,0,0,0,0,0,0,0,0,
0,0,0,0,0,0,0,0,0,0,0,0,0,0,0,0,0,0,0,0,0,0,0,0,0,0,0,0,0,0,0,0,0,0,0,0,0,0,0,0,0,0,0,0,0,0,0,0,0,0,0,0,0,0,0,0,0,0,0,0,0,0,0,0,0,0,0,0,0,0,0,0,0,0,0,0,0,0,0,0,0,0,0,0,0,0,0,0,0,0,0,0,0,0,0,0,0,0,0,0,
0,0,0,0,0,0,0,0,0,0,0,0,0,0,0,0,0,0,0,0,0,0,0,0,0,0,0,0,0,0,0,0,0,0,0,0,0,0,0,0,0,0,0,0,0,0,0,0,0,0,0,0,0,0,0,0,0,0,0,0,0,0,0,0,0,0,0,0,0,0,0,0,0,0,0,0,0,0,0,0,0,0,0,0,0,0,0,0,0,0,0,0,0,0,0,0,0,0,0,0,
0,0,0,0,0,0,0,0,0,0,0,0,0,0,0,0,0,0,0,0,0,0,0,0,0,0,0,0,0,0,0,0,0,0,0,0,0,0,0,0,0,0,0,0,0,0,0,0,0,0,0,0,0,0,0,0,0,0,0,0,0,0,0,0,0,0,0,0,0,0,0,0,0,0,0,0,0,0,0,0,0,0,0,0,0,0,0,0,0,0,0,0,0,0,0,0,0,0,0,0,
0,0,0,0,0,0,0,0,0,0,0,0,0,0,0,0,0,0,0,0,0,0,0,0,0,0,0,0,0,0,0,0,0,0,0,0,0,0,0,0,0,0,0,0,0,0,0,0,0,0,0,0,0,0,0,0,0,0,0,0,0,0,0,0,0,0,0,0,0,0,0,0,0,0,0,0,0,0,0,0,0,0,0,0,0,0,0,0,0,0,0,0,0,0,0,0,0,0,0,0,
0,0,0,0,0,0,0,0,0,0,0,0,0,0,0,0,0,0,0,0,0,0,0,0,0,0,0,0,0,0,0,0,0,0,0,0,0,0,0,0,0,0,0,0,0,0,0,0,0,0,0,0,0,0,0,0,0,0,0,0,0,0,0,0,0,0,0,0,0,0,0,0,0,0,0,0,0,0,0,0,0,0,0,0,0,0,0,0,0,0,0,0,0,0,0,0,0,0,0,0,
0,0,0,0,0,0,0,0,0,0,0,0,0,0,0,0,0,0,0,0,0,0,0,0,0,0,0,0,0,0,0,0,0,0,0,0,0,0,0,0,0,0,0,0,0,0,0,0,0,0,0,0,0,0,0,0,0,0,0,0,0,0,0,0,0,0,0,0,0,0,0,0,0,0,0,0,0,0,0,0,0,0,0,0,0,0,0,0,0,0,0,0,0,0,0,0,0,0,0,0,
0,0,0,0,0,0,0,0,0,0,0,0,0,0,0,0,0,0,0,0,0,0,0,0,0,0,0,0,0,0,0,0,0,0,0,0,0,0,0,0,0,0,0,0,0,0,0,0,0,0,0,0,0,0,0,0,0,0,0,0,0,0,0,0,0,0,0,0,0,0,0,0,0,0,0,0,0,0,0,0,0,0,0,0,0,0,0,0,0,0,0,0,0,0,0,0,0,0,0,0,
0,0,0,0,0,0,0,0,0,0,0,0,0,0,0,0,0,0,0,0,0,0,0,0,0,0,0,0,0,0,0,0,0,0,0,0,0,0,0,0,0,0,0,0,0,0,0,0,0,0,0,0,0,0,0,0,0,0,0,0,0,0,0,0,0,0,0,0,0,0,0,0,0,0,0,0,0,0,0,0,0,0,0,0,0,0,0,0,0,0,0,0,0,0,0,0,0,0,0,0,
0,0,0,0,0,0,0,0,0,0,0,0,0,0,0,0,0,0,0,0,0,0,0,0,0,0,0,0,0,0,0,0,0,0,0,0,0,0,0,0,0,0,0,0,0,0,0,0,0,0,0,0,0,0,0,0,0,0,0,0,0,0,0,0,0,0,0,0,0,0,0,0,0,0,0,0,0,0,0,0,0,0,0,0,0,0,0,0,0,0,0,0,0,0,0,0,0,0,0,0,
0,0,0,0,0,0,0,0,0,0,0,0,0,0,0,0,0,0,0,0,0,0,0,0,0,0,0,0,0,0,0,0,0,0,0,0,0,0,0,0,0,0,0,0,0,0,0,0,0,0,0,0,0,0,0,0,0,0,0,0,0,0,0,0,0,0,0,0,0,0,0,0,0,0,0,0,0,0,0,0,0,0,0,0,0,0,0,0,0,0,0,0,0,0,0,0,0,0,0,0,
0,0,0,0,0,0,0,0,0,0,0,0,0,0,0,0,0,0,0,0,0,0,0,0,0,0,0,0,0,0,0,0,0,0,0,0,0,0,0,0,0,0,0,0,0,0,0,0,0,0,0,0,0,0,0,0,0,0,0,0,0,0,0,0,0,0,0,0,0,0,0,0,0,0,0,0,0,0,0,0,0,0,0,0,0,0,0,0,0,0,0,0,0,0,0,0,0,0,0,0,
0,0,0,0,0,0,0,0,0,0,0,0,0,0,0,0,0,0,0,0,0,0,0,0,0,0,0,0,0,0,0,0,0,0,0,0,0,0,0,0,0,0,0,0,0,0,0,0,0,0,0,0,0,0,0,0,0,0,0,0,0,0,0,0,0,0,0,0,0,0,0,0,0,0,0,0,0,0,0,0,0,0,0,0,0,0,0,0,0,0,0,0,0,0,0,0,0,0,0,0,
0,0,0,0,0,0,0,0,0,0,0,0,0,0,0,0,0,0,0,0,0,0,0,0,0,0,0,0,0,0,0,0,0,0,0,0,0,0,0,0,0,0,0,0,0,0,0,0,0,0,0,0,0,0,0,0,0,0,0,0,0,0,0,0,0,0,0,0,0,0,0,0,0,0,0,0,0,0,0,0,0,0,0,0,0,0,0,0,0,0,0,0,0,0,0,0,0,0,0,0,
0,0,0,0,0,0,0,0,0,0,0,0,0,0,0,0,0,0,0,0,0,0,0,0,0,0,0,0,0,0,0,0,0,0,0,0,0,0,0,0,0,0,0,0,0,0,0,0,0,0,0,0,0,0,0,0,0,0,0,0,0,0,0,0,0,0,0,0,0,0,0,0,0,0,0,0,0,0,0,0,0,0,0,0,0,0,0,0,0,0,0,0,0,0,0,0,0,0,0,0,
0,0,0,0,0,0,0,0,0,0,0,0,0,0,0,0,0,0,0,0,0,0,0,0,0,0,0,0,0,0,0,0,0,0,0,0,0,0,0,0,0,0,0,0,0,0,0,0,0,0,0,0,0,0,0,0,0,0,0,0,0,0,0,0,0,0,0,0,0,0,0,0,0,0,0,0,0,0,0,0,0,0,0,0,0,0,0,0,0,0,0,0,0,0,0,0,0,0,0,0,
0,0,0,0,0,0,0,0,0,0,0,0,0,0,0,0,0,0,0,0,0,0,0,0,0,0,0,0,0,0,0,0,0,0,0,0,0,0,0,0,0,0,0,0,0,0,0,0,0,0,0,0,0,0,0,0,0,0,0,0,0,0,0,0,0,0,0,0,0,0,0,0,0,0,0,0,0,0,0,0,0,0,0,0,0,0,0,0,0,0,0,0,0,0,0,0,0,0,0,0,
0,0,0,0,0,0,0,0,0,0,0,0,0,0,0,0,0,0,0,0,0,0,0,0,0,0,0,0,0,0,0,0,0,0,0,0,0,0,0,0,0,0,0,0,0,0,0,0,0,0,0,0,0,0,0,0,0,0,0,0,0,0,0,0,0,0,0,0,0,0,0,0,0,0,0,0,0,0,0,0,0,0,0,0,0,0,0,0,0,0,0,0,0,0,0,0,0,0,0,0,
0,0,0,0,0,0,0,0,0,0,0,0,0,0,0,0,0,0,0,0,0,0,0,0,0,0,0,0,0,0,0,0,0,0,0,0,0,0,0,0,0,0,0,0,0,0,0,0,0,0,0,0,0,0,0,0,0,0,0,0,0,0,0,0,0,0,0,0,0,0,0,0,0,0,0,0,0,0,0,0,0,0,0,0,0,0,0,0,0,0,0,0,0,0,0,0,0,0,0,0,
0,0,0,0,0,0,0,0,0,0,0,0,0,0,0,0,0,0,0,0,0,0,0,0,0,0,0,0,0,0,0,0,0,0,0,0,0,0,0,0,0,0,0,0,0,0,0,0,0,0,0,0,0,0,0,0,0,0,0,0,0,0,0,0,0,0,0,0,0,0,0,0,0,0,0,0,0,0,0,0,0,0,0,0,0,0,0,0,0,0,0,0,0,0,0,0,0,0,0,0,
0,0,0,0,0,0,0,0,0,0,0,0,0,0,0,0,0,0,0,0,0,0,0,0,0,0,0,0,0,0,0,0,0,0,0,0,0,0,0,0,0,0,0,0,0,0,0,0,0,0,0,0,0,0,0,0,0,0,0,0,0,0,0,0,0,0,0,0,0,0,0,0,0,0,0,0,0,0,0,0,0,0,0,0,0,0,0,0,0,0,0,0,0,0,0,0,0,0,0,0,
0,0,0,0,0,0,0,0,0,0,0,0,0,0,0,0,0,0,0,0,0,0,0,0,0,0,0,0,0,0,0,0,0,0,0,0,0,0,0,0,0,0,0,0,0,0,0,0,0,0,0,0,0,0,0,0,0,0,0,0,0,0,0,0,0,0,0,0,0,0,0,0,0,0,0,0,0,0,0,0,0,0,0,0,0,0,0,0,0,0,0,0,0,0,0,0,0,0,0,0,
0,0,0,0,0,0,0,0,0,0,0,0,0,0,0,0,0,0,0,0,0,0,0,0,0,0,0,0,0,0,0,0,0,0,0,0,0,0,0,0,0,0,0,0,0,0,0,0,0,0,0,0,0,0,0,0,0,0,0,0,0,0,0,0,0,0,0,0,0,0,0,0,0,0,0,0,0,0,0,0,0,0,0,0,0,0,0,0,0,0,0,0,0,0,0,0,0,0,0,0,
0,0,0,0,0,0,0,0,0,0,0,0,0,0,0,0,0,0,0,0,0,0,0,0,0,0,0,0,0,0,0,0,0,0,0,0,0,0,0,0,0,0,0,0,0,0,0,0,0,0,0,0,0,0,0,0,0,0,0,0,0,0,0,0,0,0,0,0,0,0,0,0,0,0,0,0,0,0,0,0,0,0,0,0,0,0,0,0,0,0,0,0,0,0,0,0,0,0,0,0,
0,0,0,0,0,0,0,0,0,0,0,0,0,0,0,0,0,0,0,0,0,0,0,0,0,0,0,0,0,0,0,0,0,0,0,0,0,0,0,0,0,0,0,0,0,0,0,0,0,0,0,0,0,0,0,0,0,0,0,0,0,0,0,0,0,0,0,0,0,0,0,0,0,0,0,0,0,0,0,0,0,0,0,0,0,0,0,0,0,0,0,0,0,0,0,0,0,0,0,0,
0,0,0,0,0,0,0,0,0,0,0,0,0,0,0,0,0,0,0,0,0,0,0,0,0,0,0,0,0,0,0,0,0,0,0,0,0,0,0,0,0,0,0,0,0,0,0,0,0,0,0,0,0,0,0,0,0,0,0,0,0,0,0,0,0,0,0,0,0,0,0,0,0,0,0,0,0,0,0,0,0,0,0,0,0,0,0,0,0,0,0,0,0,0,0,0,0,0,0,0,
0,0,0,0,0,0,0,0,0,0,0,0,0,0,0,0,0,0,0,0,0,0,0,0,0,0,0,0,0,0,0,0,0,0,0,0,0,0,0,0,0,0,0,0,0,0,0,0,0,0,0,0,0,0,0,0,0,0,0,0,0,0,0,0,0,0,0,0,0,0,0,0,0,0,0,0,0,0,0,0,0,0,0,0,0,0,0,0,0,0,0,0,0,0,0,0,0,0,0,0,
0,0,0,0,0,0,0,0,0,0,0,0,0,0,0,0,0,0,0,0,0,0,0,0,0,0,0,0,0,0,0,0,0,0,0,0,0,0,0,0,0,0,0,0,0,0,0,0,0,0,0,0,0,0,0,0,0,0,0,0,0,0,0,0,0,0,0,0,0,0,0,0,0,0,0,0,0,0,0,0,0,0,0,0,0,0,0,0,0,0,0,0,0,0,0,0,0,0,0,0,
0,0,0,0,0,0,0,0,0,0,0,0,0,0,0,0,0,0,0,0,0,0,0,0,0,0,0,0,0,0,0,0,0,0,0,0,0,0,0,0,0,0,0,0,0,0,0,0,0,0,0,0,0,0,0,0,0,0,0,0,0,0,0,0,0,0,0,0,0,0,0,0,0,0,0,0,0,0,0,0,0,0,0,0,0,0,0,0,0,0,0,0,0,0,0,0,0,0,0,0,
0,0,0,0,0,0,0,0,0,0,0,0,0,0,0,0,0,0,0,0,0,0,0,0,0,0,0,0,0,0,0,0,0,0,0,0,0,0,0,0,0,0,0,0,0,0,0,0,0,0,0,0,0,0,0,0,0,0,0,0,0,0,0,0,0,0,0,0,0,0,0,0,0,0,0,0,0,0,0,0,0,0,0,0,0,0,0,0,0,0,0,0,0,0,0,0,0,0,0,0,
0,0,0,0,0,0,0,0,0,0,0,0,0,0,0,0,0,0,0,0,0,0,0,0,0,0,0,0,0,0,0,0,0,0,0,0,0,0,0,0,0,0,0,0,0,0,0,0,0,0,0,0,0,0,0,0,0,0,0,0,0,0,0,0,0,0,0,0,0,0,0,0,0,0,0,0,0,0,0,0,0,0,0,0,0,0,0,0,0,0,0,0,0,0,0,0,0,0,0,0,
0,0,0,0,0,0,0,0,0,0,0,0,0,0,0,0,0,0,0,0,0,0,0,0,0,0,0,0,0,0,0,0,0,0,0,0,0,0,0,0,0,0,0,0,0,0,0,0,0,0,0,0,0,0,0,0,0,0,0,0,0,0,0,0,0,0,0,0,0,0,0,0,0,0,0,0,0,0,0,0,0,0,0,0,0,0,0,0,0,0,0,0,0,0,0,0,0,0,0,0,
0,0,0,0,0,0,0,0,0,0,0,0,0,0,0,0,0,0,0,0,0,0,0,0,0,0,0,0,0,0,0,0,0,0,0,0,0,0,0,0,0,0,0,0,0,0,0,0,0,0,0,0,0,0,0,0,0,0,0,0,0,0,0,0,0,0,0,0,0,0,0,0,0,0,0,0,0,0,0,0,0,0,0,0,0,0,0,0,0,0,0,0,0,0,0,0,0,0,0,0,
0,0,0,0,0,0,0,0,0,0,0,0,0,0,0,0,0,0,0,0,0,0,0,0,0,0,0,0,0,0,0,0,0,0,0,0,0,0,0,0,0,0,0,0,0,0,0,0,0,0,0,0,0,0,0,0,0,0,0,0,0,0,0,0,0,0,0,0,0,0,0,0,0,0,0,0,0,0,0,0,0,0,0,0,0,0,0,0,0,0,0,0,0,0,0,0,0,0,0,0,
0,0,0,0,0,0,0,0,0,0,0,0,0,0,0,0,0,0,0,0,0,0,0,0,0,0,0,0,0,0,0,0,0,0,0,0,0,0,0,0,0,0,0,0,0,0,0,0,0,0,0,0,0,0,0,0,0,0,0,0,0,0,0,0,0,0,0,0,0,0,0,0,0,0,0,0,0,0,0,0,0,0,0,0,0,0,0,0,0,0,0,0,0,0,0,0,0,0,0,0,
0,0,0,0,0,0,0,0,0,0,0,0,0,0,0,0,0,0,0,0,0,0,0,0,0,0,0,0,0,0,0,0,0,0,0,0,0,0,0,0,0,0,0,0,0,0,0,0,0,0,0,0,0,0,0,0,0,0,0,0,0,0,0,0,0,0,0,0,0,0,0,0,0,0,0,0,0,0,0,0,0,0,0,0,0,0,0,0,0,0,0,0,0,0,0,0,0,0,0,0,
0,0,0,0,0,0,0,0,0,0,0,0,0,0,0,0,0,0,0,0,0,0,0,0,0,0,0,0,0,0,0,0,0,0,0,0,0,0,0,0,0,0,0,0,0,0,0,0,0,0,0,0,0,0,0,0,0,0,0,0,0,0,0,0,0,0,0,0,0,0,0,0,0,0,0,0,0,0,0,0,0,0,0,0,0,0,0,0,0,0,0,0,0,0,0,0,0,0,0,0,
0,0,0,0,0,0,0,0,0,0,0,0,0,0,0,0,0,0,0,0,0,0,0,0,0,0,0,0,0,0,0,0,0,0,0,0,0,0,0,0,0,0,0,0,0,0,0,0,0,0,0,0,0,0,0,0,0,0,0,0,0,0,0,0,0,0,0,0,0,0,0,0,0,0,0,0,0,0,0,0,0,0,0,0,0,0,0,0,0,0,0,0,0,0,0,0,0,0,0,0,
0,0,0,0,0,0,0,0,0,0,0,0,0,0,0,0,0,0,0,0,0,0,0,0,0,0,0,0,0,0,0,0,0,0,0,0,0,0,0,0,0,0,0,0,0,0,0,0,0,0,0,0,0,0,0,0,0,0,0,0,0,0,0,0,0,0,0,0,0,0,0,0,0,0,0,0,0,0,0,0,0,0,0,0,0,0,0,0,0,0,0,0,0,0,0,0,0,0,0,0,
0,0,0,0,0,0,0,0,0,0,0,0,0,0,0,0,0,0,0,0,0,0,0,0,0,0,0,0,0,0,0,0,0,0,0,0,0,0,0,0,0,0,0,0,0,0,0,0,0,0,0,0,0,0,0,0,0,0,0,0,0,0,0,0,0,0,0,0,0,0,0,0,0,0,0,0,0,0,0,0,0,0,0,0,0,0,0,0,0,0,0,0,0,0,0,0,0,0,0,0,
0,0,0,0,0,0,0,0,0,0,0,0,0,0,0,0,0,0,0,0,0,0,0,0,0,0,0,0,0,0,0,0,0,0,0,0,0,0,0,0,0,0,0,0,0,0,0,0,0,0,0,0,0,0,0,0,0,0,0,0,0,0,0,0,0,0,0,0,0,0,0,0,0,0,0,0,0,0,0,0,0,0,0,0,0,0,0,0,0,0,0,0,0,0,0,0,0,0,0,0,
0,0,0,0,0,0,0,0,0,0,0,0,0,0,0,0,0,0,0,0,0,0,0,0,0,0,0,0,0,0,0,0,0,0,0,0,0,0,0,0,0,0,0,0,0,0,0,0,0,0,0,0,0,0,0,0,0,0,0,0,0,0,0,0,0,0,0,0,0,0,0,0,0,0,0,0,0,0,0,0,0,0,0,0,0,0,0,0,0,0,0,0,0,0,0,0,0,0,0,0,
0,0,0,0,0,0,0,0,0,0,0,0,0,0,0,0,0,0,0,0,0,0,0,0,0,0,0,0,0,0,0,0,0,0,0,0,0,0,0,0,0,0,0,0,0,0,0,0,0,0,0,0,0,0,0,0,0,0,0,0,0,0,0,0,0,0,0,0,0,0,0,0,0,0,0,0,0,0,0,0,0,0,0,0,0,0,0,0,0,0,0,0,0,0,0,0,0,0,0,0,
0,0,0,0,0,0,0,0,0,0,0,0,0,0,0,0,0,0,0,0,0,0,0,0,0,0,0,0,0,0,0,0,0,0,0,0,0,0,0,0,0,0,0,0,0,0,0,0,0,0,0,0,0,0,0,0,0,0,0,0,0,0,0,0,0,0,0,0,0,0,0,0,0,0,0,0,0,0,0,0,0,0,0,0,0,0,0,0,0,0,0,0,0,0,0,0,0,0,0,0,
0,0,0,0,0,0,0,0,0,0,0,0,0,0,0,0,0,0,0,0,0,0,0,0,0,0,0,0,0,0,0,0,0,0,0,0,0,0,0,0,0,0,0,0,0,0,0,0,0,0,0,0,0,0,0,0,0,0,0,0,0,0,0,0,0,0,0,0,0,0,0,0,0,0,0,0,0,0,0,0,0,0,0,0,0,0,0,0,0,0,0,0,0,0,0,0,0,0,0,0,
0,0,0,0,0,0,0,0,0,0,0,0,0,0,0,0,0,0,0,0,0,0,0,0,0,0,0,0,0,0,0,0,0,0,0,0,0,0,0,0,0,0,0,0,0,0,0,0,0,0,0,0,0,0,0,0,0,0,0,0,0,0,0,0,0,0,0,0,0,0,0,0,0,0,0,0,0,0,0,0,0,0,0,0,0,0,0,0,0,0,0,0,0,0,0,0,0,0,0,0,
0,0,0,0,0,0,0,0,0,0,0,0,0,0,0,0,0,0,0,0,0,0,0,0,0,0,0,0,0,0,0,0,0,0,0,0,0,0,0,0,0,0,0,0,0,0,0,0,0,0,0,0,0,0,0,0,0,0,0,0,0,0,0,0,0,0,0,0,0,0,0,0,0,0,0,0,0,0,0,0,0,0,0,0,0,0,0,0,0,0,0,0,0,0,0,0,0,0,0,0,
0,0,0,0,0,0,0,0,0,0,0,0,0,0,0,0,0,0,0,0,0,0,0,0,0,0,0,0,0,0,0,0,0,0,0,0,0,0,0,0,0,0,0,0,0,0,0,0,0,0,0,0,0,0,0,0,0,0,0,0,0,0,0,0,0,0,0,0,0,0,0,0,0,0,0,0,0,0,0,0,0,0,0,0,0,0,0,0,0,0,0,0,0,0,0,0,0,0,0,0,
0,0,0,0,0,0,0,0,0,0,0,0,0,0,0,0,0,0,0,0,0,0,0,0,0,0,0,0,0,0,0,0,0,0,0,0,0,0,0,0,0,0,0,0,0,0,0,0,0,0,0,0,0,0,0,0,0,0,0,0,0,0,0,0,0,0,0,0,0,0,0,0,0,0,0,0,0,0,0,0,0,0,0,0,0,0,0,0,0,0,0,0,0,0,0,0,0,0,0,0,
0,0,0,0,0,0,0,0,0,0,0,0,0,0,0,0,0,0,0,0,0,0,0,0,0,0,0,0,0,0,0,0,0,0,0,0,0,0,0,0,0,0,0,0,0,0,0,0,0,0,0,0,0,0,0,0,0,0,0,0,0,0,0,0,0,0,0,0,0,0,0,0,0,0,0,0,0,0,0,0,0,0,0,0,0,0,0,0,0,0,0,0,0,0,0,0,0,0,0,0,
0,0,0,0,0,0,0,0,0,0,0,0,0,0,0,0,0,0,0,0,0,0,0,0,0,0,0,0,0,0,0,0,0,0,0,0,0,0,0,0,0,0,0,0,0,0,0,0,0,0,0,0,0,0,0,0,0,0,0,0,0,0,0,0,0,0,0,0,0,0,0,0,0,0,0,0,0,0,0,0,0,0,0,0,0,0,0,0,0,0,0,0,0,0,0,0,0,0,0,0,
0,0,0,0,0,0,0,0,0,0,0,0,0,0,0,0,0,0,0,0,0,0,0,0,0,0,0,0,0,0,0,0,0,0,0,0,0,0,0,0,0,0,0,0,0,0,0,0,0,0,0,0,0,0,0,0,0,0,0,0,0,0,0,0,0,0,0,0,0,0,0,0,0,0,0,0,0,0,0,0,0,0,0,0,0,0,0,0,0,0,0,0,0,0,0,0,0,0,0,0,
0,0,0,0,0,0,0,0,0,0,0,0,0,0,0,0,0,0,0,0,0,0,0,0,0,0,0,0,0,0,0,0,0,0,0,0,0,0,0,0,0,0,0,0,0,0,0,0,0,0,0,0,0,0,0,0,0,0,0,0,0,0,0,0,0,0,0,0,0,0,0,0,0,0,0,0,0,0,0,0,0,0,0,0,0,0,0,0,0,0,0,0,0,0,0,0,0,0,0,0,
0,0,0,0,0,0,0,0,0,0,0,0,0,0,0,0,0,0,0,0,0,0,0,0,0,0,0,0,0,0,0,0,0,0,0,0,0,0,0,0,0,0,0,0,0,0,0,0,0,0,0,0,0,0,0,0,0,0,0,0,0,0,0,0,0,0,0,0,0,0,0,0,0,0,0,0,0,0,0,0,0,0,0,0,0,0,0,0,0,0,0,0,0,0,0,0,0,0,0,0,
0,0,0,0,0,0,0,0,0,0,0,0,0,0,0,0,0,0,0,0,0,0,0,0,0,0,0,0,0,0,0,0,0,0,0,0,0,0,0,0,0,0,0,0,0,0,0,0,0,0,0,0,0,0,0,0,0,0,0,0,0,0,0,0,0,0,0,0,0,0,0,0,0,0,0,0,0,0,0,0,0,0,0,0,0,0,0,0,0,0,0,0,0,0,0,0,0,0,0,0,
0,0,0,0,0,0,0,0,0,0,0,0,0,0,0,0,0,0,0,0,0,0,0,0,0,0,0,0,0,0,0,0,0,0,0,0,0,0,0,0,0,0,0,0,0,0,0,0,0,0,0,0,0,0,0,0,0,0,0,0,0,0,0,0,0,0,0,0,0,0,0,0,0,0,0,0,0,0,0,0,0,0,0,0,0,0,0,0,0,0,0,0,0,0,0,0,0,0,0,0,
0,0,0,0,0,0,0,0,0,0,0,0,0,0,0,0,0,0,0,0,0,0,0,0,0,0,0,0,0,0,0,0,0,0,0,0,0,0,0,0,0,0,0,0,0,0,0,0,0,0,0,0,0,0,0,0,0,0,0,0,0,0,0,0,0,0,0,0,0,0,0,0,0,0,0,0,0,0,0,0,0,0,0,0,0,0,0,0,0,0,0,0,0,0,0,0,0,0,0,0,
0,0,0,0,0,0,0,0,0,0,0,0,0,0,0,0,0,0,0,0,0,0,0,0,0,0,0,0,0,0,0,0,0,0,0,0,0,0,0,0,0,0,0,0,0,0,0,0,0,0,0,0,0,0,0,0,0,0,0,0,0,0,0,0,0,0,0,0,0,0,0,0,0,0,0,0,0,0,0,0,0,0,0,0,0,0,0,0,0,0,0,0,0,0,0,0,0,0,0,0,
0,0,0,0,0,0,0,0,0,0,0,0,0,0,0,0,0,0,0,0,0,0,0,0,0,0,0,0,0,0,0,0,0,0,0,0,0,0,0,0,0,0,0,0,0,0,0,0,0,0,0,0,0,0,0,0,0,0,0,0,0,0,0,0,0,0,0,0,0,0,0,0,0,0,0,0,0,0,0,0,0,0,0,0,0,0,0,0,0,0,0,0,0,0,0,0,0,0,0,0,
0,0,0,0,0,0,0,0,0,0,0,0,0,0,0,0,0,0,0,0,0,0,0,0,0,0,0,0,0,0,0,0,0,0,0,0,0,0,0,0,0,0,0,0,0,0,0,0,0,0,0,0,0,0,0,0,0,0,0,0,0,0,0,0,0,0,0,0,0,0,0,0,0,0,0,0,0,0,0,0,0,0,0,0,0,0,0,0,0,0,0,0,0,0,0,0,0,0,0,0,
0,0,0,0,0,0,0,0,0,0,0,0,0,0,0,0,0,0,0,0,0,0,0,0,0,0,0,0,0,0,0,0,0,0,0,0,0,0,0,0,0,0,0,0,0,0,0,0,0,0,0,0,0,0,0,0,0,0,0,0,0,0,0,0,0,0,0,0,0,0,0,0,0,0,0,0,0,0,0,0,0,0,0,0,0,0,0,0,0,0,0,0,0,0,0,0,0,0,0,0,
0,0,0,0,0,0,0,0,0,0,0,0,0,0,0,0,0,0,0,0,0,0,0,0,0,0,0,0,0,0,0,0,0,0,0,0,0,0,0,0,0,0,0,0,0,0,0,0,0,0,0,0,0,0,0,0,0,0,0,0,0,0,0,0,0,0,0,0,0,0,0,0,0,0,0,0,0,0,0,0,0,0,0,0,0,0,0,0,0,0,0,0,0,0,0,0,0,0,0,0,
0,0,0,0,0,0,0,0,0,0,0,0,0,0,0,0,0,0,0,0,0,0,0,0,0,0,0,0,0,0,0,0,0,0,0,0,0,0,0,0,0,0,0,0,0,0,0,0,0,0,0,0,0,0,0,0,0,0,0,0,0,0,0,0,0,0,0,0,0,0,0,0,0,0,0,0,0,0,0,0,0,0,0,0,0,0,0,0,0,0,0,0,0,0,0,0,0,0,0,0
</data>
 </layer>
 <layer id="2" name="ground" width="100" height="100">
  <data encoding="csv">
11,12,13,14,15,12,13,14,15,12,13,14,15,12,13,14,15,12,13,14,15,12,12,13,14,15,12,13,14,15,12,13,14,15,12,13,14,15,12,13,14,15,12,13,14,15,12,13,14,15,22,23,24,25,22,23,24,25,22,23,24,25,22,23,22,23,24,25,22,23,24,25,22,23,24,25,22,23,24,25,22,23,24,25,22,23,24,25,22,23,24,25,22,23,24,22,23,24,25,26,
147,47,47,47,47,47,47,47,47,47,47,47,47,47,47,47,47,47,47,47,47,47,47,47,47,47,47,47,47,47,47,47,47,47,47,47,47,47,47,47,47,47,47,47,47,47,47,47,47,47,124,124,124,124,124,124,124,158,158,158,158,158,56,56,56,90,90,124,124,124,124,90,90,56,56,57,58,59,59,93,93,93,93,127,127,127,127,127,127,127,158,158,158,158,158,158,158,56,57,60,
147,47,47,47,47,47,47,47,47,47,47,47,47,47,47,47,47,47,47,47,47,47,47,47,47,47,47,47,47,47,47,47,47,47,47,47,47,47,47,47,47,47,47,47,47,47,47,47,47,47,158,158,158,158,158,158,158,159,160,161,93,56,90,90,90,124,124,158,158,158,158,124,124,90,90,56,56,57,58,59,127,127,127,161,161,161,161,161,161,161,161,161,161,161,127,93,93,56,57,94,
147,47,47,47,47,47,47,47,47,47,47,47,47,47,47,47,47,47,47,47,47,47,47,47,47,47,47,47,47,47,47,47,47,47,47,47,47,47,47,47,47,47,47,47,47,47,47,47,47,47,56,57,58,158,159,160,161,161,127,127,56,90,124,124,124,158,158,158,159,160,161,158,158,124,124,90,90,56,57,58,59,161,161,56,56,56,56,56,56,90,90,158,159,160,161,127,127,56,57,128,
147,47,47,47,47,47,47,47,47,47,47,47,47,47,47,47,47,47,47,47,47,47,47,47,47,47,47,47,47,47,47,47,47,47,47,47,47,47,47,47,47,47,47,47,47,47,47,47,47,47,56,57,58,59,158,159,160,161,161,161,90,124,158,158,158,159,160,161,93,93,93,93,93,158,158,124,124,90,56,57,58,59,90,90,90,90,90,90,90,124,124,56,57,58,59,161,56,57,58,60,
147,47,47,47,47,47,47,47,47,47,47,47,47,47,47,47,47,47,47,47,47,47,47,47,47,47,47,47,47,47,47,47,47,47,47,47,47,47,47,47,47,47,47,47,47,47,47,47,47,56,57,58,59,59,127,59,59,90,90,158,124,158,158,159,160,161,161,127,127,127,127,127,127,161,161,158,158,124,90,56,57,58,59,124,124,124,124,124,124,158,56,57,58,59,93,59,56,57,58,94,
147,47,47,47,47,47,47,47,47,47,47,47,47,47,47,47,47,47,47,47,47,47,47,47,47,47,47,47,47,47,47,47,47,47,47,47,47,47,47,47,47,47,47,47,47,47,47,47,47,56,57,58,59,93,161,93,93,124,124,124,158,158,159,160,161,159,160,161,161,161,161,161,161,158,158,158,158,158,124,90,56,57,58,59,158,158,158,158,56,56,56,57,58,59,127,93,56,57,58,128,
147,47,47,47,47,47,47,47,47,47,47,47,47,47,47,47,47,47,47,47,47,47,47,47,47,47,47,47,47,47,47,47,47,47,47,47,47,47,47,47,47,47,47,47,47,47,47,47,47,90,56,57,58,59,161,127,127,158,158,158,158,159,160,161,56,57,58,124,124,158,158,159,160,161,59,59,59,59,158,124,56,57,58,59,158,159,160,161,90,90,56,57,58,59,161,127,56,57,58,128,
147,47,47,47,47,47,47,47,47,47,47,47,47,47,47,47,47,47,47,47,47,47,47,47,47,47,47,47,47,47,47,47,47,47,47,47,47,47,47,47,47,47,47,47,47,47,47,47,47,124,56,57,58,59,161,161,56,57,58,59,158,159,160,161,58,59,59,158,158,159,160,161,127,93,93,93,93,93,127,158,90,56,57,58,59,159,160,56,124,56,57,58,59,93,160,161,56,57,58,60,
147,47,47,47,47,47,47,47,47,47,47,47,47,47,47,47,47,47,47,47,47,47,47,47,47,47,47,47,47,47,47,47,47,47,47,47,47,47,47,47,47,47,47,47,47,47,47,47,47,158,56,57,58,59,127,56,56,57,58,59,158,159,160,161,59,59,93,158,159,160,161,161,161,127,127,127,127,127,161,161,124,56,57,58,59,160,161,90,158,56,57,58,59,127,160,161,56,57,58,94,
147,47,47,47,47,47,47,47,47,47,47,47,47,47,47,47,47,47,47,47,47,47,47,47,47,47,47,47,47,47,47,47,47,47,47,47,47,47,47,47,47,47,47,47,47,47,47,47,47,47,56,57,58,59,161,56,57,58,59,93,158,159,160,161,93,93,127,127,161,158,159,160,161,161,161,161,161,161,59,56,158,56,57,58,59,160,161,124,158,56,57,58,59,161,160,161,59,57,58,128,
147,47,47,47,47,47,47,47,47,47,47,47,47,47,47,47,47,47,47,47,47,47,47,47,47,47,47,47,47,47,47,47,47,47,47,47,47,47,47,47,47,47,47,47,47,47,47,47,47,47,56,57,58,59,159,56,57,58,59,127,158,159,160,161,127,127,161,161,161,93,93,93,127,127,127,56,57,58,56,57,58,56,57,58,59,161,127,158,159,56,57,58,59,159,160,161,93,57,58,128,
147,47,47,47,47,47,47,47,47,47,47,47,47,47,47,47,47,47,47,47,47,47,47,47,47,47,47,47,47,47,47,47,47,47,47,47,47,47,47,47,47,47,47,47,47,47,47,47,47,47,56,57,58,59,159,56,57,58,59,161,158,159,160,161,59,161,159,160,161,127,127,127,161,161,56,57,58,59,56,57,56,56,57,58,59,161,56,158,56,57,58,59,93,159,160,161,127,57,58,60,
147,47,47,47,47,47,47,47,47,47,47,47,47,47,47,47,47,47,47,47,47,47,47,47,47,47,47,47,47,47,47,47,47,47,47,47,47,47,47,47,47,47,47,47,47,47,47,47,47,47,56,56,57,58,59,56,57,58,59,58,158,159,160,161,93,158,56,57,58,59,56,57,58,59,59,59,59,56,57,58,90,56,57,58,59,57,58,158,56,57,58,59,56,57,58,59,161,56,57,94,
147,47,47,47,47,47,47,47,47,47,47,47,47,47,47,47,47,47,47,47,47,47,47,47,47,47,47,47,47,47,47,47,47,47,47,47,47,47,47,47,47,47,47,47,47,47,47,47,47,47,90,56,57,58,56,57,58,59,93,59,158,159,160,161,127,58,59,59,59,93,56,57,58,59,93,93,93,56,57,58,124,90,56,57,58,59,59,158,56,57,58,59,56,57,58,59,161,59,57,128,
147,47,47,47,47,47,47,47,47,47,47,47,47,47,47,47,47,47,47,47,47,47,47,47,47,47,47,47,47,47,47,47,47,47,47,47,47,47,47,47,47,47,47,47,47,47,47,47,47,47,124,56,57,58,56,57,58,59,127,59,93,158,159,160,161,59,93,93,93,56,57,58,59,93,127,127,56,57,58,56,158,124,56,57,58,59,93,158,56,57,58,59,56,57,58,59,161,93,57,128,
147,47,47,47,47,47,47,47,47,47,47,47,47,47,47,47,47,47,47,47,47,47,47,47,47,47,47,47,47,47,47,47,47,47,47,47,47,47,47,47,47,47,47,47,47,47,47,47,47,47,158,56,57,58,56,57,58,59,161,93,127,158,159,160,161,93,127,127,56,56,57,58,59,127,161,161,56,57,58,90,158,158,56,57,58,59,127,158,56,57,58,59,56,57,58,59,161,127,57,60,
147,47,47,47,47,47,47,47,47,47,47,47,47,47,47,47,47,47,47,47,47,47,47,47,47,47,47,47,47,47,47,47,47,47,47,47,47,47,47,47,47,47,47,47,47,47,47,47,47,47,158,56,57,58,56,57,58,59,161,127,56,158,159,160,161,127,161,56,56,56,57,58,59,161,161,161,56,57,56,124,158,159,56,57,58,59,161,158,56,57,58,56,57,58,59,93,160,161,57,94,
147,47,47,47,47,47,47,47,47,47,47,47,47,47,47,47,47,47,47,47,47,47,47,47,47,47,47,47,47,47,47,47,47,47,47,47,47,47,47,47,47,47,47,47,47,47,47,47,47,47,56,57,58,56,57,58,59,93,161,56,57,158,159,160,161,161,56,56,56,57,58,59,93,160,161,161,56,57,90,158,159,160,56,57,58,59,90,158,56,57,58,56,57,58,59,127,160,161,56,128,
147,47,47,47,47,47,47,47,47,47,47,47,47,47,47,47,47,47,47,47,47,47,47,47,47,47,47,47,47,47,47,47,47,47,47,47,47,47,47,47,47,47,47,47,47,47,47,47,47,47,56,57,58,56,57,58,59,127,56,57,58,158,159,160,161,56,56,57,56,57,58,59,127,160,161,161,56,56,124,158,159,160,56,57,58,59,124,158,56,57,58,56,57,58,59,161,160,161,56,60,
147,47,47,47,47,47,47,47,47,47,47,47,47,47,47,47,47,47,47,47,47,47,47,47,47,47,47,47,47,47,47,47,47,47,47,47,47,47,47,47,47,47,47,47,47,47,47,47,47,47,56,57,58,56,57,58,56,57,58,59,59,158,159,160,161,90,56,56,57,58,59,93,161,160,161,161,56,90,158,159,160,161,56,57,58,59,158,159,56,57,58,56,57,58,59,161,160,161,56,94,
147,47,47,47,47,47,47,47,47,47,47,47,47,47,47,47,47,47,47,47,47,47,47,47,47,47,47,47,47,47,47,47,47,47,47,47,47,47,47,47,47,47,47,47,47,47,47,47,47,47,56,57,58,56,57,56,57,58,56,57,58,158,159,160,161,59,56,56,57,58,59,127,159,160,161,161,56,124,158,159,160,161,56,57,58,59,159,160,56,57,58,56,57,58,59,161,160,161,56,128,
147,47,47,47,47,47,47,47,47,47,47,47,47,47,47,47,47,47,47,47,47,47,47,47,47,47,47,47,47,47,47,47,47,47,47,47,47,483,484,47,47,47,47,47,47,47,47,47,47,56,57,58,59,56,57,56,57,56,57,58,59,158,159,160,161,93,57,56,57,58,59,161,159,160,161,56,90,158,159,160,161,56,56,57,58,59,160,161,56,57,56,57,58,59,93,161,160,56,57,94,
147,47,47,47,47,47,47,47,47,47,47,47,47,47,47,47,47,47,47,47,47,47,47,47,47,47,47,47,47,47,47,47,47,417,418,47,47,517,518,47,47,47,47,47,47,47,47,47,47,56,57,58,59,56,56,57,58,56,57,58,59,158,159,160,161,127,57,56,57,58,59,158,159,160,56,56,124,158,159,160,161,56,56,57,58,59,161,93,56,57,56,57,58,59,127,161,160,56,57,128,
147,47,47,47,47,47,47,47,47,47,47,47,47,47,47,47,47,47,47,47,47,47,47,47,47,47,47,47,47,47,47,47,47,451,452,47,47,47,47,47,47,47,47,47,47,47,47,47,47,56,57,58,59,56,57,58,56,57,58,59,56,90,158,159,160,161,56,57,58,59,93,158,159,56,56,90,158,159,160,56,57,58,56,57,58,59,127,127,90,56,56,57,58,59,161,161,160,56,57,60,
147,47,47,47,47,47,47,47,47,47,47,47,47,47,47,47,47,47,47,47,47,47,47,47,47,47,47,47,47,47,47,47,47,47,47,415,416,47,47,47,47,47,47,47,47,47,47,47,47,56,57,58,59,56,57,56,57,58,59,93,90,124,158,159,160,161,57,58,59,93,127,158,159,56,56,124,158,159,160,56,57,58,56,57,58,59,161,161,124,56,56,57,58,59,160,161,160,56,57,94,
147,47,47,47,47,47,47,47,47,47,47,47,47,47,47,47,47,47,47,47,47,47,47,47,47,47,47,47,47,47,47,47,47,47,47,449,450,47,47,47,47,47,47,47,47,47,47,47,47,56,57,58,56,57,58,56,57,58,59,56,124,158,159,160,161,56,57,58,59,127,161,159,56,56,90,158,159,160,56,57,58,59,56,57,58,59,158,159,158,56,57,58,59,93,160,161,56,57,58,128,
147,47,47,47,47,47,47,47,47,47,47,47,47,47,47,47,47,47,47,47,47,47,47,47,47,47,47,47,47,47,47,47,47,47,47,47,47,47,47,47,47,47,47,47,47,47,47,47,47,56,57,58,56,57,56,57,58,59,93,90,158,158,159,160,161,57,58,59,93,161,161,56,57,56,124,158,159,56,57,58,59,93,56,57,58,59,158,159,160,56,57,58,59,127,160,161,56,57,58,60,
147,47,47,47,47,47,47,47,47,47,47,47,47,47,47,47,47,47,47,47,47,47,47,47,47,47,47,47,47,47,47,47,47,47,47,47,47,47,47,47,47,47,47,47,47,47,47,47,47,56,57,58,56,57,56,57,58,59,56,124,158,159,160,161,56,57,58,59,127,161,158,56,56,90,158,56,57,58,59,59,93,127,56,57,58,59,159,160,161,56,57,58,59,161,160,161,56,57,58,94,
147,47,47,47,47,47,47,47,47,47,47,47,47,47,47,47,47,47,47,47,47,47,47,47,47,47,47,47,47,47,47,47,47,47,47,47,47,47,47,47,47,47,47,47,47,47,47,47,47,56,57,58,56,56,57,58,59,93,90,158,158,159,160,161,56,57,58,59,161,161,56,57,90,124,56,57,58,59,93,93,127,161,56,57,58,59,159,160,161,56,57,58,59,159,160,161,56,57,58,128,
147,47,47,47,47,47,47,47,47,47,47,47,47,47,47,47,47,47,47,47,47,47,47,47,47,47,47,47,47,47,47,47,47,47,47,47,47,47,47,47,47,47,47,47,47,47,47,47,47,56,57,58,90,56,57,58,59,56,124,158,159,160,161,59,57,58,59,93,160,56,57,56,124,56,57,58,59,93,127,127,161,160,56,57,58,59,160,56,57,58,59,59,59,159,160,161,56,57,58,60,
147,47,47,47,47,47,47,47,47,47,47,47,47,47,47,47,47,47,47,47,47,47,47,47,47,47,47,47,47,47,47,47,47,47,47,47,47,47,47,47,47,47,47,47,47,47,47,47,47,56,57,58,56,57,58,59,93,90,158,159,160,161,93,93,57,58,59,127,161,56,56,90,56,57,58,59,59,127,161,161,160,161,56,57,58,59,59,59,59,59,59,59,59,59,59,161,57,58,59,94,
147,47,47,47,47,47,47,47,47,47,47,47,47,47,47,47,47,47,47,47,47,47,47,47,47,47,47,47,47,47,47,47,47,47,47,47,47,47,47,47,47,47,47,47,47,47,47,47,47,56,57,58,56,57,58,59,56,124,158,159,160,161,127,127,57,58,59,161,56,56,90,56,57,58,59,93,93,161,158,159,160,161,56,57,58,59,93,93,93,93,93,93,93,93,59,161,57,58,59,128,
147,47,47,47,47,47,47,47,47,47,47,47,47,47,47,47,47,47,47,47,47,47,47,47,47,47,47,47,47,47,47,47,47,47,47,47,47,47,47,47,47,47,47,47,47,47,47,47,47,56,57,56,57,58,59,56,90,158,159,160,161,127,161,161,58,59,93,160,56,90,56,57,58,59,93,127,127,158,159,160,161,58,56,57,58,59,127,127,127,127,127,127,127,127,93,161,57,58,59,60,
147,47,47,47,47,47,47,47,47,47,47,47,47,47,47,47,47,47,47,47,47,47,47,47,47,47,47,47,47,47,47,47,47,47,47,47,47,47,47,47,47,47,47,47,47,47,47,47,47,90,91,56,57,58,59,90,124,158,159,160,161,161,160,161,58,59,127,56,90,56,57,58,59,93,127,161,161,159,160,161,58,59,56,57,58,59,161,161,161,161,161,161,161,161,127,161,57,58,56,94,
147,47,47,47,47,47,47,47,47,47,47,47,47,47,47,47,47,47,47,47,47,47,47,47,47,47,47,47,47,47,47,47,47,47,47,47,47,47,47,47,47,47,47,47,47,47,47,47,47,124,56,56,57,58,59,124,158,159,160,161,161,160,161,57,58,59,56,56,124,56,57,58,59,127,161,161,158,159,160,161,59,93,56,57,58,59,161,161,56,90,124,158,159,160,161,161,56,57,58,128,
147,47,47,47,47,47,47,47,47,47,47,47,47,47,47,47,47,47,47,47,47,47,47,47,47,47,47,47,47,47,47,47,47,47,47,47,47,47,47,47,47,47,47,47,47,47,47,47,47,158,56,57,58,59,93,158,159,160,161,161,159,160,161,58,59,56,56,90,56,57,58,59,93,161,160,161,159,160,161,59,93,127,56,57,58,59,160,56,90,124,158,158,159,56,56,57,58,59,59,60,
147,47,47,47,47,47,47,47,47,47,47,47,47,47,47,47,47,47,47,47,47,47,47,47,47,47,47,47,47,47,47,47,47,47,47,47,47,47,47,47,47,47,47,47,47,47,47,47,47,47,56,57,58,59,127,158,159,160,161,57,58,59,58,59,93,56,90,56,57,58,59,93,127,56,124,158,159,160,161,93,127,161,56,57,58,59,56,90,124,158,159,160,161,56,57,58,59,93,93,94,
147,47,47,47,47,47,47,47,47,47,47,47,47,47,47,47,47,47,47,47,47,47,47,47,47,47,47,47,47,47,47,47,47,47,47,47,47,47,47,47,47,47,47,47,47,47,47,47,47,56,57,58,59,93,161,158,159,160,161,57,58,59,58,59,56,90,56,57,58,59,93,127,161,90,158,159,160,161,59,127,161,161,56,57,58,59,90,124,158,159,160,161,159,56,57,58,59,127,127,128,
147,47,47,47,47,47,47,47,47,47,47,47,47,47,47,47,47,47,47,47,47,47,47,47,47,47,47,47,47,47,47,47,47,47,47,47,47,47,47,47,47,47,47,47,47,47,47,47,47,56,57,58,59,127,158,158,159,160,161,57,58,59,59,56,57,56,57,58,59,93,127,161,90,124,158,159,160,161,93,161,161,161,56,57,58,59,124,158,159,160,161,159,56,56,57,58,59,161,161,60,
147,47,47,47,47,47,47,47,47,47,47,47,47,47,47,47,47,47,47,47,47,47,47,47,47,47,47,47,47,47,47,47,47,47,47,47,47,47,47,47,47,47,47,47,47,47,47,47,56,57,58,59,93,161,159,158,159,160,161,58,59,56,57,58,59,56,57,58,59,127,161,56,124,158,159,160,161,93,127,161,56,56,56,57,58,59,158,159,160,161,160,56,90,56,57,58,59,161,56,94,
147,47,47,47,47,47,47,47,47,47,47,47,47,47,47,47,47,47,47,47,47,47,47,47,47,47,47,47,47,47,47,47,47,47,47,47,47,47,47,47,47,47,47,47,47,47,47,47,56,57,58,59,127,159,56,158,159,160,161,56,57,58,59,56,57,58,59,59,93,161,56,90,158,159,160,161,93,127,161,56,90,90,56,57,58,59,160,161,159,160,161,90,56,57,58,59,93,93,90,128,
147,47,47,47,47,47,47,47,47,47,47,47,47,47,47,47,47,47,47,47,47,47,47,47,47,47,47,47,47,47,47,47,47,47,47,47,47,47,47,47,47,47,47,47,47,47,47,47,56,56,56,56,56,56,56,158,159,160,161,58,59,59,56,57,58,59,59,93,127,56,90,124,158,159,160,161,127,161,90,90,124,124,56,57,58,59,161,159,160,161,56,56,57,58,59,93,127,127,124,60,
147,47,47,47,47,47,47,47,47,47,47,47,47,47,47,47,47,47,47,47,47,47,47,47,47,47,47,47,47,47,47,47,47,47,47,47,47,47,47,47,47,47,47,47,47,47,47,47,90,90,90,90,90,56,90,158,159,160,161,58,59,56,57,58,59,93,93,127,161,90,124,158,159,160,161,127,161,90,124,124,158,158,56,57,58,59,159,160,161,56,90,56,57,58,59,127,161,161,158,94,
147,47,47,47,47,47,47,47,47,47,47,47,47,47,47,47,47,47,47,47,47,47,47,47,47,47,47,47,47,47,47,47,47,47,47,47,47,47,47,47,47,47,47,47,47,47,47,47,124,124,124,56,56,90,124,158,159,160,161,59,56,57,58,59,93,127,127,161,56,124,158,159,160,161,127,161,124,124,158,158,159,160,56,57,58,59,160,161,58,90,56,57,58,59,93,161,93,58,158,128,
147,47,47,47,47,47,47,47,47,47,47,47,47,47,47,47,47,47,47,47,47,47,47,47,47,47,47,47,47,47,47,47,47,47,47,47,47,47,47,47,47,47,47,47,47,47,47,47,158,158,56,90,90,124,158,159,160,161,56,57,58,59,59,93,127,161,161,58,90,158,159,160,161,93,161,124,158,158,56,57,58,59,56,57,58,59,161,58,56,124,56,57,58,59,127,161,127,57,56,60,
147,47,47,47,47,47,47,47,47,47,47,47,47,47,47,47,47,47,47,47,47,47,47,47,47,47,47,47,47,47,47,47,47,47,47,47,47,47,47,47,47,47,47,47,47,47,47,47,47,56,90,124,124,158,159,160,161,57,58,59,59,93,93,127,161,57,58,56,124,158,159,56,56,57,58,59,159,56,57,58,59,93,56,57,58,59,58,56,90,158,56,57,58,59,161,161,161,56,90,94,
147,47,47,47,47,47,47,47,47,47,47,47,47,47,47,47,47,47,47,47,47,47,47,47,47,47,47,47,47,47,47,47,47,47,47,47,47,47,47,47,47,47,47,47,47,47,47,47,47,90,124,158,158,158,159,160,161,59,59,59,93,127,127,161,57,58,59,90,158,159,160,56,57,58,59,93,161,56,57,58,59,127,56,57,58,59,59,90,124,56,57,58,59,93,160,161,56,90,124,128,
147,47,47,47,47,47,47,47,47,47,47,47,47,47,47,47,47,47,47,47,47,47,47,47,47,47,47,47,47,47,47,47,47,47,47,47,47,47,47,47,47,47,47,47,47,47,47,47,47,124,158,158,159,160,161,93,93,93,93,93,127,161,161,57,58,59,56,124,158,159,56,56,57,58,59,127,56,57,58,59,93,161,56,57,58,59,56,124,158,56,57,58,59,127,56,56,90,124,158,60,
147,47,47,47,47,47,47,47,47,47,47,47,47,47,47,47,47,47,47,47,47,47,47,47,47,47,47,47,47,47,47,47,47,47,47,47,47,47,47,47,47,47,47,47,47,47,47,47,47,56,57,58,59,59,59,59,59,127,127,127,161,56,57,58,59,56,90,158,159,56,90,56,57,58,59,56,57,58,59,93,127,161,56,57,58,56,90,158,159,56,57,58,59,161,59,59,59,158,159,94,
157,56,56,56,56,56,56,56,56,56,56,57,58,59,59,59,59,59,59,59,59,59,59,59,59,59,59,59,59,59,59,59,59,59,59,59,59,59,59,59,59,59,59,59,59,59,59,59,57,58,59,59,93,93,93,93,93,161,161,161,158,56,57,58,56,56,124,158,159,90,124,56,57,58,59,56,57,58,59,127,161,93,56,57,56,90,124,158,159,56,57,58,59,59,93,93,93,59,160,128,
157,90,90,90,90,90,90,90,90,56,57,58,59,93,93,93,93,93,93,93,93,93,93,93,93,93,93,93,93,93,93,93,93,93,93,93,93,93,93,93,93,93,93,93,93,93,93,93,59,59,93,93,127,127,127,127,127,124,124,158,56,57,58,56,90,90,158,159,56,124,158,56,57,58,56,57,58,59,93,161,161,127,56,56,90,124,158,159,56,57,58,59,93,93,127,127,127,93,161,60,
157,58,59,124,124,124,124,56,57,58,59,59,93,127,127,127,127,127,127,127,127,127,127,127,127,127,127,127,127,127,127,127,127,127,127,127,127,127,127,127,127,127,127,127,127,127,127,127,93,93,127,127,161,161,161,161,161,56,57,58,59,59,56,90,56,124,158,56,90,158,56,57,58,59,56,57,58,59,127,161,161,161,56,90,124,158,159,160,56,57,56,57,58,59,161,161,161,127,56,60,
157,57,58,59,158,158,56,57,58,59,93,93,127,161,161,161,161,161,161,161,161,161,161,161,56,56,56,56,56,56,57,58,59,161,161,161,161,161,161,161,161,161,161,161,161,161,161,161,127,127,161,161,124,158,159,160,161,58,59,59,93,93,90,124,90,158,56,90,124,158,56,57,58,56,57,58,59,93,161,159,160,56,90,124,158,159,160,56,56,57,58,59,59,93,159,160,161,161,59,94,
157,56,57,58,59,56,57,58,59,93,127,127,161,127,158,158,158,158,158,158,158,56,56,56,90,90,90,90,90,90,56,57,58,59,124,124,124,124,124,124,124,124,124,124,158,159,160,161,161,161,124,124,158,159,160,161,58,59,93,93,127,127,124,56,56,56,90,124,158,56,57,58,59,56,57,58,59,127,161,59,59,90,124,158,159,160,56,57,58,59,59,93,93,127,58,59,59,161,93,128,
157,90,56,56,56,57,58,59,93,127,161,161,161,161,161,161,56,56,56,56,56,90,90,90,124,124,124,124,124,124,90,56,56,57,58,59,158,158,158,158,158,158,158,158,158,158,159,160,161,124,158,158,159,160,161,59,59,59,127,127,161,161,158,56,90,90,124,158,159,56,57,58,56,57,58,59,93,161,58,59,93,124,158,159,56,57,58,59,59,93,93,127,127,161,59,93,93,161,127,94,
157,124,90,90,90,56,56,56,56,56,56,56,56,56,56,56,56,56,56,56,56,56,56,56,56,56,56,56,56,56,56,56,56,56,56,56,57,58,59,158,158,158,158,158,158,158,158,158,158,158,159,160,161,93,93,93,93,93,161,161,160,161,159,90,124,124,158,159,160,56,57,58,56,57,58,59,127,161,59,93,127,158,56,57,58,59,59,93,93,127,127,161,161,161,59,127,127,160,161,128,
157,58,59,124,124,90,90,90,90,90,90,90,90,90,90,90,90,90,90,90,90,90,90,90,90,90,90,90,90,90,90,90,90,90,90,90,56,56,56,56,56,57,58,59,127,127,127,127,127,127,127,127,127,127,127,127,127,127,159,160,161,159,56,124,158,158,159,160,161,56,57,56,57,58,59,93,161,59,93,127,161,56,57,58,59,93,93,127,127,161,161,159,160,161,93,161,161,160,161,60,
157,92,93,158,158,124,124,124,124,124,124,124,124,124,124,124,124,124,124,124,124,124,124,124,124,124,124,124,124,124,124,124,124,124,124,124,90,90,90,90,90,56,57,58,59,161,161,161,161,161,161,161,161,161,161,161,161,161,159,160,161,56,90,158,159,160,161,158,159,56,56,57,58,59,93,127,161,93,127,161,57,58,59,59,93,127,127,161,161,90,158,159,160,161,127,160,161,160,161,94,
157,126,127,59,59,59,59,59,59,59,59,59,59,59,59,59,59,59,59,59,59,59,59,59,59,59,59,59,59,59,59,59,59,59,59,59,59,59,59,59,59,59,59,59,59,124,158,158,56,56,90,124,124,158,158,159,160,161,160,161,59,59,59,59,159,160,161,160,161,56,56,56,56,57,58,59,161,127,161,161,59,59,93,93,127,161,161,58,56,124,158,159,160,161,161,161,159,160,161,128,
157,160,161,56,56,56,56,56,56,56,56,57,58,59,93,93,93,93,93,93,93,93,93,93,93,93,93,93,93,93,93,93,93,93,93,93,93,93,93,93,93,93,93,56,57,58,59,59,90,90,124,158,158,159,160,161,159,160,161,93,93,93,93,93,160,161,160,161,158,56,56,90,56,57,58,59,127,161,161,93,93,93,127,127,161,56,57,58,56,158,159,160,161,161,160,161,59,59,161,60,
157,90,90,90,90,90,90,90,90,90,90,56,56,56,57,58,59,127,127,127,127,127,127,127,127,127,127,127,127,127,127,127,127,127,127,127,127,56,56,56,56,56,56,57,58,59,93,93,124,124,158,159,160,161,158,159,160,161,127,127,127,127,127,127,161,161,124,158,159,90,90,56,57,58,59,93,161,161,93,127,127,127,161,161,56,57,58,59,56,158,159,160,161,160,161,93,93,93,161,94,
157,124,124,124,124,124,124,124,124,124,124,90,90,90,56,56,56,57,58,59,161,161,161,161,161,161,161,161,161,161,161,161,161,161,56,56,56,90,90,90,90,56,57,58,59,59,127,127,158,158,158,159,160,161,159,160,161,161,161,161,161,161,161,161,56,56,57,58,56,124,56,57,58,59,93,127,161,127,127,161,161,161,158,159,56,57,58,59,56,158,159,160,161,160,161,127,127,127,161,128,
157,59,59,158,158,158,158,158,158,158,158,124,124,124,90,90,90,56,56,56,57,58,59,161,161,161,161,161,56,56,56,56,56,56,90,90,90,124,124,124,56,57,58,59,93,93,161,161,56,56,56,90,158,159,160,161,124,124,124,158,159,160,161,56,57,58,59,59,56,56,57,58,59,93,127,161,161,161,161,161,56,57,56,57,58,59,59,56,90,158,159,160,161,161,127,161,161,161,161,60,
157,93,93,59,59,59,59,59,59,59,59,59,59,59,59,59,59,59,59,56,56,56,56,56,56,56,56,56,90,90,90,90,90,90,124,124,124,158,158,158,56,57,58,59,127,127,90,90,90,90,90,124,124,124,124,158,158,158,158,159,160,161,59,59,59,59,93,93,56,57,58,59,93,127,161,161,159,160,161,56,57,56,57,58,59,93,93,56,124,158,159,160,161,161,161,160,161,160,161,94,
157,127,127,93,93,93,93,93,93,93,93,93,93,93,56,57,58,59,56,90,90,90,90,90,90,90,90,90,124,124,124,124,124,124,158,158,158,159,160,56,57,58,59,93,161,161,124,124,124,124,124,158,158,158,158,159,160,161,159,160,161,93,93,93,93,93,127,127,56,57,58,59,127,161,161,158,159,160,161,56,56,57,58,59,93,127,127,90,158,159,160,161,160,161,160,161,159,160,161,128,
157,161,161,127,56,56,57,58,59,59,59,56,56,56,56,57,58,59,90,124,124,124,124,124,124,124,124,124,158,158,158,158,158,158,159,160,161,56,56,57,56,56,56,56,56,56,57,58,59,56,56,56,56,56,56,56,56,56,56,56,56,56,56,56,56,56,56,56,56,57,58,59,161,161,158,159,160,161,56,56,57,58,59,93,127,161,161,124,158,159,160,161,161,161,161,158,159,160,161,60,
157,160,161,161,58,59,59,59,93,93,56,90,90,56,57,58,59,93,124,158,158,158,158,158,158,158,158,158,159,160,161,90,90,90,90,90,90,90,56,56,90,90,90,90,90,90,56,56,57,58,59,90,90,90,90,90,90,90,90,90,90,90,90,90,90,90,90,90,90,56,56,56,56,56,57,58,59,56,56,57,58,59,93,127,161,90,56,158,159,160,161,161,161,161,124,158,159,160,161,94,
157,159,160,161,59,93,93,56,56,56,90,124,56,57,58,59,93,127,158,159,56,57,58,59,59,59,56,57,58,59,59,59,59,59,59,124,124,124,90,90,124,124,124,124,124,124,90,56,57,58,59,124,124,124,124,124,124,124,124,124,124,124,124,124,124,124,124,124,124,90,90,56,57,58,59,59,56,56,56,57,58,59,127,161,161,56,90,158,159,160,161,161,159,56,158,159,160,161,59,128,
157,160,161,56,56,56,56,56,56,90,124,56,57,58,59,93,127,161,59,59,59,59,59,93,93,93,57,58,59,59,93,93,93,93,93,59,59,59,59,124,158,158,158,158,158,158,124,56,57,58,59,59,59,59,59,59,59,59,59,59,59,59,59,59,59,59,59,59,59,59,59,59,59,59,56,57,56,56,57,58,59,93,161,161,58,59,59,158,159,160,161,158,159,56,158,159,160,161,59,60,
157,160,161,59,59,59,59,59,59,59,59,58,59,59,93,127,161,93,93,93,93,93,93,127,127,127,57,58,59,93,127,127,127,127,127,93,93,93,93,56,57,58,59,59,59,59,59,59,59,59,59,93,93,93,93,93,93,93,93,93,93,93,93,93,93,93,93,93,93,93,93,93,93,93,56,56,90,56,57,58,59,127,161,59,59,93,93,59,59,59,161,159,160,56,158,159,160,161,59,94,
157,160,161,93,93,93,93,93,93,93,93,59,93,93,127,161,127,127,127,127,127,127,127,161,161,161,57,58,59,127,161,161,161,161,161,56,56,56,56,57,58,59,93,93,93,93,93,93,93,93,93,59,59,59,59,59,59,59,59,59,59,59,59,59,59,59,59,59,59,59,59,59,59,59,59,59,59,59,58,59,93,161,93,93,93,127,127,93,93,93,56,57,58,59,59,159,160,161,93,128,
157,161,127,127,127,127,127,127,127,127,127,93,127,127,161,161,161,161,161,161,161,161,161,161,93,56,57,58,59,161,127,56,56,56,56,90,56,57,58,59,59,93,127,127,127,127,127,127,127,127,127,93,93,93,93,93,93,93,93,93,93,93,93,93,93,93,93,93,93,93,93,93,93,93,93,93,93,93,59,93,127,161,127,127,127,161,161,127,127,127,59,58,59,59,93,159,160,161,56,60,
157,161,161,161,161,161,161,161,161,161,161,127,161,161,56,90,90,158,159,160,161,161,161,93,127,90,56,57,56,56,56,90,90,90,90,56,57,58,59,59,93,127,161,161,161,161,161,161,161,161,161,127,56,57,58,59,59,59,59,59,59,59,59,59,59,59,127,127,127,127,127,127,127,127,127,127,127,127,59,127,161,161,161,161,161,159,160,161,161,161,93,58,59,59,56,57,58,59,59,94,
157,56,57,58,56,90,158,158,159,160,161,161,124,124,56,124,124,158,159,160,161,56,57,58,59,124,90,56,90,90,90,124,124,124,124,56,57,58,59,93,127,161,160,161,158,56,57,58,59,59,59,59,59,59,59,93,93,93,93,93,93,93,93,93,93,93,161,161,161,161,161,161,161,161,161,161,161,161,59,161,158,158,158,158,56,57,158,159,160,161,127,59,93,93,59,59,59,93,93,128,
157,56,56,56,90,124,158,159,160,161,161,90,158,158,90,158,158,159,160,161,90,90,56,56,57,158,124,90,124,124,124,158,158,158,158,90,56,56,56,57,58,59,59,59,59,59,59,59,93,93,93,93,93,93,93,127,127,127,127,127,127,127,127,127,127,127,158,158,158,56,90,124,124,158,158,159,160,161,93,161,159,160,161,56,57,58,59,158,159,160,161,93,127,127,93,93,93,127,127,60,
157,56,56,90,124,158,159,160,161,161,90,124,158,159,124,158,159,160,161,59,59,59,59,59,59,59,59,59,59,59,59,59,59,59,59,59,59,59,59,59,59,93,93,93,93,93,93,93,127,127,127,127,127,127,127,161,161,161,161,161,161,161,161,161,161,161,159,160,161,90,124,158,158,158,159,160,161,161,127,158,159,160,161,56,57,58,59,158,159,160,161,127,161,161,127,127,127,161,161,94,
157,90,90,124,158,159,160,161,161,124,124,158,159,160,158,159,160,161,93,93,93,93,93,93,93,93,93,93,93,93,93,93,93,93,93,93,93,56,56,56,56,56,56,56,57,58,59,127,161,161,161,161,161,161,161,159,160,161,56,90,90,90,90,90,90,124,124,124,158,124,158,159,160,161,158,159,160,161,161,56,56,56,56,56,56,56,56,158,159,160,161,161,160,161,161,161,161,124,158,128,
157,56,57,58,59,160,161,124,158,158,158,159,160,161,161,160,161,161,127,127,127,127,127,127,127,127,127,127,127,127,56,56,56,56,56,56,56,90,90,90,90,90,90,56,56,56,57,58,59,160,161,56,90,90,90,90,90,90,90,124,124,124,124,124,124,158,158,158,159,158,159,160,161,90,158,159,160,161,90,90,90,90,90,90,90,90,90,158,159,160,161,90,90,90,90,124,124,158,159,60,
157,56,56,56,56,56,56,56,56,56,56,56,56,56,56,56,56,56,56,56,56,56,56,56,56,56,56,56,56,56,90,90,90,90,90,90,90,124,124,124,124,124,124,56,57,58,59,59,59,90,90,90,124,124,124,124,124,124,124,158,158,158,158,158,158,159,160,161,59,59,59,59,59,59,59,59,59,59,59,59,59,59,59,124,124,124,124,158,159,160,161,124,124,124,124,158,158,159,160,94,
157,90,90,90,90,90,90,90,90,90,90,90,90,90,90,90,90,90,90,56,57,58,59,59,59,59,56,56,56,56,56,56,56,56,56,56,56,57,58,59,158,158,56,57,58,59,59,93,93,124,124,124,158,158,158,158,158,158,158,159,160,161,93,93,93,93,93,93,93,93,93,93,93,93,93,93,93,93,93,93,93,93,93,158,158,158,158,158,158,158,158,158,158,158,158,159,160,161,127,60,
157,124,124,124,124,124,124,124,124,124,124,124,124,124,124,124,124,56,57,56,56,56,56,56,56,56,90,90,90,90,90,90,90,90,90,90,56,57,58,59,56,57,58,59,59,93,93,127,127,59,158,158,159,160,161,127,127,127,127,127,127,127,127,127,127,127,127,127,127,127,127,127,127,127,127,127,127,127,127,127,127,127,127,127,56,56,56,56,56,56,56,56,56,57,58,59,57,58,59,94,
157,56,57,56,56,57,58,59,158,158,158,158,56,57,58,59,59,59,59,90,90,90,90,90,90,90,124,124,124,124,124,124,124,124,56,57,58,59,59,59,56,57,58,59,93,127,127,161,161,59,161,161,161,161,56,56,56,56,56,56,56,56,56,56,56,56,56,56,56,56,56,56,56,56,56,56,56,56,56,56,56,56,56,56,90,90,90,90,90,90,90,56,57,58,59,59,57,58,59,128,
157,56,57,90,56,56,57,58,59,59,56,57,58,59,59,59,93,93,93,124,124,124,124,124,124,124,158,158,158,158,158,56,57,58,59,59,59,59,93,93,57,58,59,59,127,161,161,93,59,57,58,59,59,59,59,59,59,90,90,90,90,90,90,90,90,90,90,90,90,90,90,90,90,90,90,90,90,90,90,90,90,90,90,90,124,124,124,124,124,124,124,56,57,58,59,93,57,58,59,60,
157,56,57,124,90,56,56,57,58,59,57,58,59,59,93,93,127,127,127,59,59,59,59,59,59,158,159,160,161,56,57,58,59,59,59,93,93,93,127,127,57,58,59,93,161,59,161,127,93,59,59,59,93,93,93,93,93,124,124,124,124,124,124,124,124,124,124,124,124,124,124,124,56,57,58,59,59,59,59,59,59,59,59,59,59,59,59,59,158,158,158,56,57,58,59,127,57,58,59,94,
157,56,57,158,124,90,56,57,58,59,57,58,59,93,127,127,161,161,161,93,93,93,93,93,93,59,59,59,59,59,59,59,93,93,93,127,127,127,161,161,59,59,93,127,56,56,56,56,57,58,59,93,127,127,127,127,127,158,158,158,158,158,158,158,158,158,158,158,56,56,56,56,56,56,56,56,57,58,59,93,93,93,93,93,93,93,93,93,59,59,59,59,59,59,59,161,57,58,59,128,
157,56,56,57,158,124,90,56,57,58,59,59,59,127,161,161,56,56,57,58,59,127,127,127,127,93,93,93,93,93,93,93,127,127,127,161,161,161,127,93,93,93,127,161,57,58,59,90,56,56,56,57,58,59,161,161,161,161,161,127,127,127,93,93,93,59,59,59,90,90,90,90,90,90,90,90,56,56,56,56,56,56,57,58,59,127,127,127,93,93,93,93,93,93,93,56,57,58,59,60,
157,90,56,57,58,158,124,56,56,57,58,59,93,161,90,90,90,90,56,56,56,56,56,56,56,56,57,58,59,127,127,127,161,161,161,159,160,161,161,127,127,127,161,56,56,56,56,56,57,58,59,56,56,57,58,59,161,160,161,161,161,161,127,127,127,93,93,93,124,124,124,124,124,124,124,124,90,90,90,90,90,90,56,56,56,56,56,56,57,58,59,127,56,57,58,59,59,58,59,94,
157,124,56,57,58,59,158,90,90,56,56,56,57,58,59,57,58,59,90,90,90,90,90,56,57,58,59,59,59,59,59,59,59,59,59,59,59,59,59,59,59,59,59,59,59,59,59,59,59,59,59,90,90,56,56,56,56,56,56,57,58,59,161,161,161,127,127,127,158,158,158,158,158,158,56,57,58,59,59,124,124,124,90,90,90,90,90,90,56,56,56,56,56,57,58,59,93,58,59,60,
157,158,56,57,58,59,125,124,124,90,90,90,91,92,93,91,92,93,59,59,59,59,59,59,59,59,59,93,93,93,93,93,93,93,93,93,93,93,93,93,93,93,93,93,93,93,93,93,93,93,93,59,59,59,59,90,90,90,90,56,56,56,56,57,58,59,59,56,56,56,56,56,56,56,56,56,56,57,58,59,59,59,124,124,124,124,124,124,90,90,56,57,58,59,59,93,127,59,59,94,
157,56,57,56,56,56,56,57,58,59,124,124,125,126,127,59,126,127,93,93,56,57,58,59,59,59,59,59,59,59,59,59,59,59,59,59,59,59,59,59,59,56,57,58,59,59,59,59,127,127,127,59,59,59,59,59,59,59,59,59,59,59,59,59,59,59,59,59,59,59,59,59,90,90,56,57,58,59,59,59,59,59,59,59,59,59,59,59,59,59,59,59,58,59,93,127,161,59,59,128,
157,56,56,90,90,90,90,91,92,93,59,59,59,59,59,59,59,59,59,59,59,59,59,59,59,59,59,59,59,59,59,59,59,59,59,59,59,59,59,59,59,59,59,59,59,93,93,93,56,57,58,59,59,59,59,59,59,59,93,59,59,59,59,59,59,93,93,59,59,59,93,93,59,59,59,59,59,56,57,58,59,93,93,93,59,59,59,59,59,59,93,93,59,59,127,161,161,93,93,60,
157,90,90,124,124,124,124,125,126,127,93,93,93,93,93,93,93,93,93,93,93,93,93,93,93,93,93,93,93,93,93,93,93,93,93,93,93,93,93,93,93,93,93,93,93,127,127,127,90,91,92,93,93,93,93,93,93,93,127,93,93,93,93,93,93,127,127,93,93,93,127,127,93,93,93,93,93,90,91,92,93,127,127,127,93,93,93,93,93,93,127,127,93,93,161,127,127,127,127,94,
157,124,124,158,158,158,158,159,160,161,127,127,127,127,127,127,127,127,127,127,127,127,127,56,56,56,56,56,57,58,59,127,127,127,127,127,127,127,127,127,127,127,127,127,127,161,161,161,124,125,126,127,127,127,127,56,57,56,57,58,59,59,59,59,59,59,59,59,59,59,59,161,127,127,127,127,127,124,125,126,127,161,161,161,127,127,127,127,127,127,56,56,57,58,59,56,57,58,59,128,
157,158,56,57,58,59,59,59,59,59,59,59,56,56,56,56,56,56,57,58,59,161,161,90,90,90,90,90,91,92,93,59,59,59,59,161,161,161,161,161,161,161,161,161,161,159,160,161,158,159,56,56,57,58,59,59,59,59,59,59,93,93,93,93,93,56,56,56,56,56,56,56,56,56,56,56,56,56,57,58,59,159,160,161,56,56,56,56,56,56,90,90,56,56,57,58,59,58,59,60,
55,56,57,58,59,56,56,56,56,56,56,56,90,90,90,90,90,90,56,56,56,56,56,56,56,56,57,58,59,126,127,93,93,93,93,59,59,59,59,59,59,59,59,59,59,59,59,59,59,59,59,59,59,59,93,93,93,93,93,93,127,127,127,127,127,56,56,56,57,58,59,90,90,90,90,90,90,56,57,58,59,59,59,59,59,90,90,90,90,90,124,124,90,56,57,58,59,58,59,94,
89,56,56,56,56,90,90,90,90,90,90,90,124,124,124,124,124,124,90,90,90,90,90,56,57,58,59,59,59,160,161,127,127,127,127,93,93,93,93,93,93,93,93,93,93,93,93,93,93,93,93,93,93,93,127,127,127,127,127,127,161,161,161,161,161,56,57,58,59,59,93,124,124,124,124,124,124,56,56,56,56,57,58,59,59,59,59,59,59,59,59,59,59,59,59,59,59,59,59,94,
123,90,90,90,90,124,56,57,58,59,59,59,59,59,59,59,59,59,59,59,59,59,59,59,59,59,93,93,93,161,161,161,161,161,161,127,127,127,127,127,127,127,127,127,127,127,127,127,127,127,127,127,127,127,161,161,161,161,161,161,158,158,159,160,161,59,59,59,93,93,127,158,158,158,56,57,58,59,59,59,59,59,59,59,93,93,93,93,93,93,93,93,93,93,93,93,93,93,93,128,
157,124,124,124,124,158,90,91,92,93,93,93,93,93,93,93,93,93,93,93,93,93,93,93,93,93,127,127,56,57,58,59,158,159,160,161,161,161,161,161,161,161,161,161,161,161,161,161,161,161,161,161,161,161,160,161,93,93,93,93,93,93,93,93,93,93,93,93,127,127,161,59,59,59,59,59,59,93,93,93,93,93,93,93,127,127,127,127,127,127,127,127,127,127,127,127,127,127,127,162,
191,192,193,194,195,192,193,194,195,192,193,194,195,192,193,194,192,193,194,192,193,194,195,192,193,194,195,192,193,194,195,192,193,194,195,192,193,194,195,192,193,194,195,192,193,194,195,192,193,194,195,192,193,194,195,192,193,194,195,192,193,194,195,192,193,194,195,192,193,194,195,192,193,194,195,192,193,194,195,192,193,194,195,192,193,194,195,192,193,194,195,192,193,194,195,192,193,194,195,196
</data>
 </layer>
 <objectgroup id="3" name="start">
  <object id="1" type="start" x="1316.52" y="776.212" width="32" height="32">
   <properties>
    <property name="type" value="start"/>
   </properties>
  </object>
 </objectgroup>
 <objectgroup color="#000000" id="4" name="spawn">
  <object id="13" type="spawn" x="195.394" y="150.243" width="32" height="32">
   <properties>
    <property name="count" type="int" value="1"/>
    <property name="monsterKey" value="rotmaw"/>
    <property name="respawnSec" type="int" value="30"/>
    <property name="type" value="spawn"/>
   </properties>
  </object>
  <object id="20" type="spawn" x="589.576" y="1166.66" width="32" height="32">
   <properties>
    <property name="count" type="int" value="1"/>
    <property name="monsterKey" value="rat"/>
    <property name="respawnSec" type="int" value="30"/>
    <property name="type" value="spawn"/>
   </properties>
  </object>
  <object id="22" type="spawn" x="2710.55" y="426.36" width="32" height="32">
   <properties>
    <property name="count" type="int" value="1"/>
    <property name="monsterKey" value="bear"/>
    <property name="respawnSec" type="int" value="30"/>
    <property name="type" value="spawn"/>
   </properties>
  </object>
  <object id="25" type="spawn" x="3024.3" y="2172.91" width="32" height="32">
   <properties>
    <property name="count" type="int" value="1"/>
    <property name="monsterKey" value="demon_bonefiend"/>
    <property name="respawnSec" type="int" value="30"/>
    <property name="type" value="spawn"/>
   </properties>
  </object>
  <object id="26" type="spawn" x="2991.21" y="3018.79" width="32" height="32">
   <properties>
    <property name="count" type="int" value="1"/>
    <property name="monsterKey" value="balor"/>
    <property name="respawnSec" type="int" value="30"/>
    <property name="type" value="spawn"/>
   </properties>
  </object>
  <object id="27" type="spawn" x="690.424" y="1527.03" width="32" height="32">
   <properties>
    <property name="count" type="int" value="1"/>
    <property name="monsterKey" value="skeleton"/>
    <property name="respawnSec" type="int" value="30"/>
    <property name="type" value="spawn"/>
   </properties>
  </object>
  <object id="28" type="spawn" x="2025.58" y="900" width="32" height="32">
   <properties>
    <property name="count" type="int" value="1"/>
    <property name="monsterKey" value="spider"/>
    <property name="respawnSec" type="int" value="30"/>
    <property name="type" value="spawn"/>
   </properties>
  </object>
  <object id="29" type="spawn" x="2513.63" y="1438.12" width="32" height="32">
   <properties>
    <property name="count" type="int" value="1"/>
    <property name="monsterKey" value="poison_spider"/>
    <property name="respawnSec" type="int" value="30"/>
    <property name="type" value="spawn"/>
   </properties>
  </object>
  <object id="30" type="spawn" x="748.06" y="108.728" width="32" height="32">
   <properties>
    <property name="count" type="int" value="1"/>
    <property name="monsterKey" value="goblin"/>
    <property name="respawnSec" type="int" value="30"/>
    <property name="type" value="spawn"/>
   </properties>
  </object>
  <object id="31" type="spawn" x="1067.27" y="2938.91" width="32" height="32">
   <properties>
    <property name="count" type="int" value="1"/>
    <property name="monsterKey" value="ghost"/>
    <property name="respawnSec" type="int" value="30"/>
    <property name="type" value="spawn"/>
   </properties>
  </object>
  <object id="34" type="spawn" x="353.696" y="723.394" width="32" height="32">
   <properties>
    <property name="count" type="int" value="1"/>
    <property name="monsterKey" value="cave_rat"/>
    <property name="respawnSec" type="int" value="30"/>
    <property name="type" value="spawn"/>
   </properties>
  </object>
  <object id="36" type="spawn" x="3088.85" y="50.182" width="32" height="32">
   <properties>
    <property name="count" type="int" value="1"/>
    <property name="monsterKey" value="fire_devil"/>
    <property name="respawnSec" type="int" value="30"/>
    <property name="type" value="spawn"/>
   </properties>
  </object>
  <object id="42" type="spawn" x="1390.06" y="247.636" width="32" height="32">
   <properties>
    <property name="count" type="int" value="1"/>
    <property name="monsterKey" value="deer"/>
    <property name="respawnSec" type="int" value="30"/>
    <property name="type" value="spawn"/>
   </properties>
  </object>
  <object id="44" type="spawn" x="1120.36" y="496.121" width="32" height="32">
   <properties>
    <property name="count" type="int" value="1"/>
    <property name="monsterKey" value="deer"/>
    <property name="respawnSec" type="int" value="30"/>
    <property name="type" value="spawn"/>
   </properties>
  </object>
  <object id="45" type="spawn" x="1468.85" y="1277.94" width="32" height="32">
   <properties>
    <property name="count" type="int" value="1"/>
    <property name="monsterKey" value="deer"/>
    <property name="respawnSec" type="int" value="30"/>
    <property name="type" value="spawn"/>
   </properties>
  </object>
  <object id="46" type="spawn" x="774.909" y="808.242" width="32" height="32">
   <properties>
    <property name="count" type="int" value="1"/>
    <property name="monsterKey" value="rat"/>
    <property name="respawnSec" type="int" value="30"/>
    <property name="type" value="spawn"/>
   </properties>
  </object>
  <object id="47" type="spawn" x="259.758" y="1014.3" width="32" height="32">
   <properties>
    <property name="count" type="int" value="1"/>
    <property name="monsterKey" value="rat"/>
    <property name="respawnSec" type="int" value="30"/>
    <property name="type" value="spawn"/>
   </properties>
  </object>
  <object id="48" type="spawn" x="456.727" y="399.152" width="32" height="32">
   <properties>
    <property name="count" type="int" value="1"/>
    <property name="monsterKey" value="cave_rat"/>
    <property name="respawnSec" type="int" value="30"/>
    <property name="type" value="spawn"/>
   </properties>
  </object>
  <object id="49" type="spawn" x="393.091" y="1962.79" width="32" height="32">
   <properties>
    <property name="count" type="int" value="1"/>
    <property name="monsterKey" value="ghost"/>
    <property name="respawnSec" type="int" value="30"/>
    <property name="type" value="spawn"/>
   </properties>
  </object>
  <object id="50" type="spawn" x="1847.64" y="1929.45" width="32" height="32">
   <properties>
    <property name="count" type="int" value="1"/>
    <property name="monsterKey" value="wolf"/>
    <property name="respawnSec" type="int" value="30"/>
    <property name="type" value="spawn"/>
   </properties>
  </object>
  <object id="51" type="spawn" x="1426.42" y="1753.7" width="32" height="32">
   <properties>
    <property name="count" type="int" value="1"/>
    <property name="monsterKey" value="wolf"/>
    <property name="respawnSec" type="int" value="30"/>
    <property name="type" value="spawn"/>
   </properties>
  </object>
 </objectgroup>
</map>
